; GCode generated by CraftWare

G28 X Y ; home horizontally
G28 Z ; home vertically


M104 S215 ;set head temp (no wait)
M190 S60 ;set bed temp (wait)
M109 S215 ;set head temp (wait)
; ------------------------------------
; Layer #0
; ------------------------------------
M106 S0 ;turn off fan
G21 ; mm
G90 ; abs
G92 E0 ;reset extr
G0 F600 Z0.200
;segType:Skirt
G0 F3000 E-1.00000
G0 X145.549 Y114.695 F5400
G0 F3000 E0.00000
G1 X142.068 Y111.215 E0.16371 F2400
G1 X142.068 Y88.785 E0.90973
G1 X145.677 Y85.176 E1.07950
G1 X146.129 Y85.111 E1.09467
G1 X179.129 Y85.111 E2.19225
G1 X182.738 Y88.720 E2.36203
G1 X182.803 Y89.172 E2.37719
G1 X182.803 Y110.828 E3.09748
G1 X182.738 Y111.280 E3.11265
G1 X179.129 Y114.889 E3.28243
G1 X145.742 Y114.889 E4.39287
G1 X145.549 Y114.695 E4.40198
G0 X145.549 Y115.082 F5400
G1 X141.681 Y111.215 E4.58388 F2400
G1 X141.681 Y88.785 E5.32989
G1 X145.549 Y84.918 E5.51180
G1 X145.871 Y84.724 E5.52431
G1 X179.129 Y84.724 E6.63047
G1 X182.996 Y88.592 E6.81237
G1 X183.190 Y88.914 E6.82488
G1 X183.190 Y111.086 E7.56232
G1 X182.996 Y111.408 E7.57483
G1 X179.129 Y115.276 E7.75673
G1 X145.742 Y115.276 E8.86718
G1 X145.645 Y115.178 E8.87176
G0 F3000 E7.87176
G0 X147.600 Y109.400 F5400
G0 X165.858 Y109.040
G0 F3000 E8.87176
;segType:HShell
G1 X147.961 Y91.142 E9.71358 F2400
G0 X147.416 Y90.780 F5400
;segType:Perimeter
G1 X147.260 Y90.200 E9.73354 F1440
G1 X177.800 Y90.200 E10.74927
G1 X177.800 Y109.800 E11.40115
G1 X147.200 Y109.800 E12.41888
G1 X147.200 Y90.260 E13.06876
G0 X147.973 Y90.467 F5400
G0 X148.300 Y90.600
;segType:Loop
G1 X177.400 Y90.600 E14.03660 F2400
G1 X177.400 Y109.400 E14.66187
G1 X147.600 Y109.400 E15.65299
G1 X147.600 Y90.600 E16.27826
G1 X148.100 Y90.600 E16.29489
G0 X148.344 Y90.960 F5400
;segType:HShell
G1 X166.423 Y109.040 E17.14527 F2400
G0 X166.989 Y109.040 F5400
G1 X148.910 Y90.960 E17.99566 F2400
G0 X149.476 Y90.960 F5400
G1 X167.555 Y109.040 E18.84604 F2400
G0 X168.120 Y109.040 F5400
G1 X150.041 Y90.960 E19.69643 F2400
G0 X150.607 Y90.960 F5400
G1 X168.686 Y109.040 E20.54681 F2400
G0 X169.252 Y109.040 F5400
G1 X151.173 Y90.960 E21.39719 F2400
G0 X151.738 Y90.960 F5400
G1 X169.817 Y109.040 E22.24758 F2400
G0 X170.383 Y109.040 F5400
G1 X152.304 Y90.960 E23.09796 F2400
G0 X152.870 Y90.960 F5400
G1 X170.949 Y109.040 E23.94834 F2400
G0 X171.514 Y109.040 F5400
G1 X153.435 Y90.960 E24.79873 F2400
G0 X154.001 Y90.960 F5400
G1 X172.080 Y109.040 E25.64911 F2400
G0 X172.646 Y109.040 F5400
G1 X154.567 Y90.960 E26.49950 F2400
G0 X155.132 Y90.960 F5400
G1 X173.212 Y109.040 E27.34988 F2400
G0 X173.777 Y109.040 F5400
G1 X155.698 Y90.960 E28.20026 F2400
G0 X156.264 Y90.960 F5400
G1 X174.343 Y109.040 E29.05065 F2400
G0 X174.909 Y109.040 F5400
G1 X156.830 Y90.960 E29.90103 F2400
G0 X157.395 Y90.960 F5400
G1 X175.474 Y109.040 E30.75141 F2400
G0 X176.040 Y109.040 F5400
G1 X157.961 Y90.960 E31.60180 F2400
G0 X158.527 Y90.960 F5400
G1 X176.606 Y109.040 E32.45218 F2400
G0 X177.039 Y108.908 F5400
G1 X159.092 Y90.960 E33.29636 F2400
G0 X159.658 Y90.960 F5400
G1 X177.039 Y108.342 E34.11393 F2400
G0 X177.039 Y107.776 F5400
G1 X160.224 Y90.960 E34.90489 F2400
G0 X160.789 Y90.960 F5400
G1 X177.039 Y107.211 E35.66925 F2400
G0 X177.039 Y106.645 F5400
G1 X161.355 Y90.960 E36.40700 F2400
G0 X161.921 Y90.960 F5400
G1 X177.039 Y106.079 E37.11813 F2400
G0 X177.039 Y105.514 F5400
G1 X162.486 Y90.960 E37.80267 F2400
G0 X163.052 Y90.960 F5400
G1 X177.039 Y104.948 E38.46059 F2400
G0 X177.039 Y104.382 F5400
G1 X163.618 Y90.960 E39.09190 F2400
G0 X164.183 Y90.960 F5400
G1 X177.039 Y103.816 E39.69661 F2400
G0 X177.039 Y103.251 F5400
G1 X164.749 Y90.960 E40.27471 F2400
G0 X165.315 Y90.960 F5400
G1 X177.039 Y102.685 E40.82620 F2400
G0 X177.039 Y102.119 F5400
G1 X165.881 Y90.960 E41.35108 F2400
G0 X166.446 Y90.960 F5400
G1 X177.039 Y101.554 E41.84936 F2400
G0 X177.039 Y100.988 F5400
G1 X167.012 Y90.960 E42.32102 F2400
G0 X167.578 Y90.960 F5400
G1 X177.039 Y100.422 E42.76608 F2400
G0 X177.039 Y99.857 F5400
G1 X168.143 Y90.960 E43.18453 F2400
G0 X168.709 Y90.960 F5400
G1 X177.039 Y99.291 E43.57637 F2400
G0 X177.039 Y98.725 F5400
G1 X169.275 Y90.960 E43.94161 F2400
G0 X169.840 Y90.960 F5400
G1 X177.039 Y98.160 E44.28023 F2400
G0 X177.039 Y97.594 F5400
G1 X170.406 Y90.960 E44.59225 F2400
G0 X170.972 Y90.960 F5400
G1 X177.039 Y97.028 E44.87766 F2400
G0 X177.039 Y96.463 F5400
G1 X171.537 Y90.960 E45.13646 F2400
G0 X172.103 Y90.960 F5400
G1 X177.039 Y95.897 E45.36865 F2400
G0 X177.039 Y95.331 F5400
G1 X172.669 Y90.960 E45.57424 F2400
G0 X173.234 Y90.960 F5400
G1 X177.039 Y94.766 E45.75322 F2400
G0 X177.039 Y94.200 F5400
G1 X173.800 Y90.960 E45.90559 F2400
G0 X174.366 Y90.960 F5400
G1 X177.039 Y93.634 E46.03135 F2400
G0 X177.039 Y93.068 F5400
G1 X174.931 Y90.960 E46.13050 F2400
G0 X175.497 Y90.960 F5400
G1 X177.039 Y92.503 E46.20305 F2400
G0 X177.039 Y91.937 F5400
G1 X176.063 Y90.960 E46.24898 F2400
G0 X176.629 Y90.960 F5400
G1 X177.039 Y91.371 E46.26831 F2400
G0 X165.292 Y109.040 F5400
G1 X147.961 Y91.708 E47.08353 F2400
G0 X147.961 Y92.274 F5400
G1 X164.726 Y109.040 E47.87214 F2400
G0 X164.161 Y109.040 F5400
G1 X147.961 Y92.840 E48.63413 F2400
G0 X147.961 Y93.405 F5400
G1 X163.595 Y109.040 E49.36952 F2400
G0 X163.029 Y109.040 F5400
G1 X147.961 Y93.971 E50.07831 F2400
G0 X147.961 Y94.537 F5400
G1 X162.464 Y109.040 E50.76048 F2400
G0 X161.898 Y109.040 F5400
G1 X147.961 Y95.102 E51.41605 F2400
G0 X147.961 Y95.668 F5400
G1 X161.332 Y109.040 E52.04501 F2400
G0 X160.766 Y109.040 F5400
G1 X147.961 Y96.234 E52.64736 F2400
G0 X147.961 Y96.799 F5400
G1 X160.201 Y109.040 E53.22310 F2400
G0 X159.635 Y109.040 F5400
G1 X147.961 Y97.365 E53.77223 F2400
G0 X147.961 Y97.931 F5400
G1 X159.069 Y109.040 E54.29476 F2400
G0 X158.504 Y109.040 F5400
G1 X147.961 Y98.496 E54.79068 F2400
G0 X147.961 Y99.062 F5400
G1 X157.938 Y109.040 E55.25999 F2400
G0 X157.372 Y109.040 F5400
G1 X147.961 Y99.628 E55.70269 F2400
G0 X147.961 Y100.193 F5400
G1 X156.807 Y109.040 E56.11878 F2400
G0 X156.241 Y109.040 F5400
G1 X147.961 Y100.759 E56.50827 F2400
G0 X147.961 Y101.325 F5400
G1 X155.675 Y109.040 E56.87115 F2400
G0 X155.110 Y109.040 F5400
G1 X147.961 Y101.890 E57.20742 F2400
G0 X147.961 Y102.456 F5400
G1 X154.544 Y109.040 E57.51708 F2400
G0 X153.978 Y109.040 F5400
G1 X147.961 Y103.022 E57.80013 F2400
G0 X147.961 Y103.588 F5400
G1 X153.413 Y109.040 E58.05658 F2400
G0 X152.847 Y109.040 F5400
G1 X147.961 Y104.153 E58.28641 F2400
G0 X147.961 Y104.719 F5400
G1 X152.281 Y109.040 E58.48964 F2400
G0 X151.715 Y109.040 F5400
G1 X147.961 Y105.285 E58.66626 F2400
G0 X147.961 Y105.850 F5400
G1 X151.150 Y109.040 E58.81628 F2400
G0 X150.584 Y109.040 F5400
G1 X147.961 Y106.416 E58.93968 F2400
G0 X147.961 Y106.982 F5400
G1 X150.018 Y109.040 E59.03648 F2400
G0 X149.453 Y109.040 F5400
G1 X147.961 Y107.547 E59.10667 F2400
G0 X147.961 Y108.113 F5400
G1 X148.887 Y109.040 E59.15024 F2400
G0 X148.321 Y109.040 F5400
G1 X147.961 Y108.679 E59.16722 F2400
; ------------------------------------
; Layer #1
; ------------------------------------
G92 E0 ;reset extr
G0 F3000 E-1.00000
G0 F600 Z0.400
G0 X147.961 Y94.010 F7200
G0 F3000 E0.00000
;segType:HShell
G1 X151.010 Y90.960 E0.14342 F3600
G0 X150.444 Y90.960 F7200
G1 X147.961 Y93.444 E0.26023 F3600
G0 X147.961 Y92.878 F7200
G1 X149.878 Y90.960 E0.35044 F3600
G0 X149.313 Y90.960 F7200
G1 X147.961 Y92.313 E0.41403 F3600
G0 X147.961 Y91.747 F7200
G1 X148.747 Y90.960 E0.45102 F3600
G0 X147.961 Y91.181 F7200
G1 X148.181 Y90.960 E0.46140 F3600
G0 X147.416 Y90.780 F7200
;segType:Perimeter
G1 X147.260 Y90.200 E0.48135 F2160
G1 X177.800 Y90.200 E1.49709
G1 X177.800 Y109.800 E2.14897
G1 X147.200 Y109.800 E3.16670
G1 X147.200 Y90.260 E3.81658
G0 X147.973 Y90.467 F7200
G0 X148.300 Y90.600
;segType:Loop
G1 X177.400 Y90.600 E4.78442 F3600
G1 X177.400 Y109.400 E5.40969
G1 X147.600 Y109.400 E6.40081
G1 X147.600 Y90.600 E7.02608
G1 X148.100 Y90.600 E7.04271
G0 F3000 E6.04271
G0 X151.575 Y90.960 F7200
G0 F3000 E7.04271
;segType:HShell
G1 X147.961 Y94.575 E7.21274 F3600
G0 X147.961 Y95.141 F7200
G1 X152.141 Y90.960 E7.40937 F3600
G0 X152.707 Y90.960 F7200
G1 X147.961 Y95.707 E7.63262 F3600
G0 X147.961 Y96.272 F7200
G1 X153.272 Y90.960 E7.88247 F3600
G0 X153.838 Y90.960 F7200
G1 X147.961 Y96.838 E8.15893 F3600
G0 X147.961 Y97.404 F7200
G1 X154.404 Y90.960 E8.46200 F3600
G0 X154.969 Y90.960 F7200
G1 X147.961 Y97.969 E8.79167 F3600
G0 X147.961 Y98.535 F7200
G1 X155.535 Y90.960 E9.14796 F3600
G0 X156.101 Y90.960 F7200
G1 X147.961 Y99.101 E9.53085 F3600
G0 X147.961 Y99.666 F7200
G1 X156.667 Y90.960 E9.94035 F3600
G0 X157.232 Y90.960 F7200
G1 X147.961 Y100.232 E10.37646 F3600
G0 X147.961 Y100.798 F7200
G1 X157.798 Y90.960 E10.83918 F3600
G0 X158.364 Y90.960 F7200
G1 X147.961 Y101.363 E11.32850 F3600
G0 X147.961 Y101.929 F7200
G1 X158.929 Y90.960 E11.84444 F3600
G0 X159.495 Y90.960 F7200
G1 X147.961 Y102.495 E12.38698 F3600
G0 X147.961 Y103.061 F7200
G1 X160.061 Y90.960 E12.95613 F3600
G0 X160.626 Y90.960 F7200
G1 X147.961 Y103.626 E13.55188 F3600
G0 X147.961 Y104.192 F7200
G1 X161.192 Y90.960 E14.17425 F3600
G0 X161.758 Y90.960 F7200
G1 X147.961 Y104.758 E14.82322 F3600
G0 X147.961 Y105.323 F7200
G1 X162.323 Y90.960 E15.49881 F3600
G0 X162.889 Y90.960 F7200
G1 X147.961 Y105.889 E16.20100 F3600
G0 X147.961 Y106.455 F7200
G1 X163.455 Y90.960 E16.92979 F3600
G0 X164.020 Y90.960 F7200
G1 X147.961 Y107.020 E17.68520 F3600
G0 X147.961 Y107.586 F7200
G1 X164.586 Y90.960 E18.46721 F3600
G0 X165.152 Y90.960 F7200
G1 X147.961 Y108.152 E19.27584 F3600
G0 X147.961 Y108.717 F7200
G1 X165.717 Y90.960 E20.11107 F3600
G0 X166.283 Y90.960 F7200
G1 X148.204 Y109.040 E20.96145 F3600
G0 X148.770 Y109.040 F7200
G1 X166.849 Y90.960 E21.81183 F3600
G0 X167.415 Y90.960 F7200
G1 X149.335 Y109.040 E22.66221 F3600
G0 X149.901 Y109.040 F7200
G1 X167.980 Y90.960 E23.51259 F3600
G0 X168.546 Y90.960 F7200
G1 X150.467 Y109.040 E24.36298 F3600
G0 X151.033 Y109.040 F7200
G1 X169.112 Y90.960 E25.21336 F3600
G0 X169.677 Y90.960 F7200
G1 X151.598 Y109.040 E26.06374 F3600
G0 X152.164 Y109.040 F7200
G1 X170.243 Y90.960 E26.91412 F3600
G0 X170.809 Y90.960 F7200
G1 X152.730 Y109.040 E27.76450 F3600
G0 X153.295 Y109.040 F7200
G1 X171.374 Y90.960 E28.61488 F3600
G0 X171.940 Y90.960 F7200
G1 X153.861 Y109.040 E29.46527 F3600
G0 X154.427 Y109.040 F7200
G1 X172.506 Y90.960 E30.31565 F3600
G0 X173.071 Y90.960 F7200
G1 X154.992 Y109.040 E31.16603 F3600
G0 X155.558 Y109.040 F7200
G1 X173.637 Y90.960 E32.01641 F3600
G0 X174.203 Y90.960 F7200
G1 X156.124 Y109.040 E32.86680 F3600
G0 X156.689 Y109.040 F7200
G1 X174.768 Y90.960 E33.71718 F3600
G0 X175.334 Y90.960 F7200
G1 X157.255 Y109.040 E34.56756 F3600
G0 X157.821 Y109.040 F7200
G1 X175.900 Y90.960 E35.41795 F3600
G0 X176.465 Y90.960 F7200
G1 X158.386 Y109.040 E36.26833 F3600
G0 X158.952 Y109.040 F7200
G1 X177.031 Y90.960 E37.11871 F3600
G0 X177.039 Y91.518 F7200
G1 X159.518 Y109.040 E37.94288 F3600
G0 X160.084 Y109.040 F7200
G1 X177.039 Y92.084 E38.74043 F3600
G0 X177.039 Y92.649 F7200
G1 X160.649 Y109.040 E39.51138 F3600
G0 X161.215 Y109.040 F7200
G1 X177.039 Y93.215 E40.25572 F3600
G0 X177.039 Y93.781 F7200
G1 X161.781 Y109.040 E40.97345 F3600
G0 X162.346 Y109.040 F7200
G1 X177.039 Y94.346 E41.66457 F3600
G0 X177.039 Y94.912 F7200
G1 X162.912 Y109.040 E42.32909 F3600
G0 X163.478 Y109.040 F7200
G1 X177.039 Y95.478 E42.96700 F3600
G0 X177.039 Y96.043 F7200
G1 X164.043 Y109.040 E43.57830 F3600
G0 X164.609 Y109.040 F7200
G1 X177.039 Y96.609 E44.16299 F3600
G0 X177.039 Y97.175 F7200
G1 X165.175 Y109.040 E44.72107 F3600
G0 X165.740 Y109.040 F7200
G1 X177.039 Y97.740 E45.25254 F3600
G0 X177.039 Y98.306 F7200
G1 X166.306 Y109.040 E45.75741 F3600
G0 X166.872 Y109.040 F7200
G1 X177.039 Y98.872 E46.23567 F3600
G0 X177.039 Y99.437 F7200
G1 X167.437 Y109.040 E46.68732 F3600
G0 X168.003 Y109.040 F7200
G1 X177.039 Y100.003 E47.11236 F3600
G0 X177.039 Y100.569 F7200
G1 X168.569 Y109.040 E47.51080 F3600
G0 X169.134 Y109.040 F7200
G1 X177.039 Y101.135 E47.88262 F3600
G0 X177.039 Y101.700 F7200
G1 X169.700 Y109.040 E48.22784 F3600
G0 X170.266 Y109.040 F7200
G1 X177.039 Y102.266 E48.54645 F3600
G0 X177.039 Y102.832 F7200
G1 X170.832 Y109.040 E48.83846 F3600
G0 X171.397 Y109.040 F7200
G1 X177.039 Y103.397 E49.10385 F3600
G0 X177.039 Y103.963 F7200
G1 X171.963 Y109.040 E49.34264 F3600
G0 X172.529 Y109.040 F7200
G1 X177.039 Y104.529 E49.55482 F3600
G0 X177.039 Y105.094 F7200
G1 X173.094 Y109.040 E49.74039 F3600
G0 X173.660 Y109.040 F7200
G1 X177.039 Y105.660 E49.89935 F3600
G0 X177.039 Y106.226 F7200
G1 X174.226 Y109.040 E50.03170 F3600
G0 X174.791 Y109.040 F7200
G1 X177.039 Y106.791 E50.13745 F3600
G0 X177.039 Y107.357 F7200
G1 X175.357 Y109.040 E50.21659 F3600
G0 X175.923 Y109.040 F7200
G1 X177.039 Y107.923 E50.26911 F3600
G0 X177.039 Y108.488 F7200
G1 X176.488 Y109.040 E50.29504 F3600
; ------------------------------------
; Layer #2
; ------------------------------------
G92 E0 ;reset extr
G0 F3000 E-1.00000
G0 F600 Z0.600
G0 X165.858 Y109.040 F7200
G0 F3000 E0.00000
;segType:HShell
G1 X147.961 Y91.142 E0.84182 F3600
G0 X147.416 Y90.780 F7200
;segType:Perimeter
G1 X147.260 Y90.200 E0.86178 F2160
G1 X177.800 Y90.200 E1.87752
G1 X177.800 Y109.800 E2.52939
G1 X147.200 Y109.800 E3.54712
G1 X147.200 Y90.260 E4.19700
G0 X147.973 Y90.467 F7200
G0 X148.300 Y90.600
;segType:Loop
G1 X177.400 Y90.600 E5.16484 F3600
G1 X177.400 Y109.400 E5.79011
G1 X147.600 Y109.400 E6.78124
G1 X147.600 Y90.600 E7.40650
G1 X148.100 Y90.600 E7.42313
G0 X148.344 Y90.960 F7200
;segType:HShell
G1 X166.423 Y109.040 E8.27352 F3600
G0 X166.989 Y109.040 F7200
G1 X148.910 Y90.960 E9.12390 F3600
G0 X149.476 Y90.960 F7200
G1 X167.555 Y109.040 E9.97428 F3600
G0 X168.120 Y109.040 F7200
G1 X150.041 Y90.960 E10.82467 F3600
G0 X150.607 Y90.960 F7200
G1 X168.686 Y109.040 E11.67505 F3600
G0 X169.252 Y109.040 F7200
G1 X151.173 Y90.960 E12.52543 F3600
G0 X151.738 Y90.960 F7200
G1 X169.817 Y109.040 E13.37582 F3600
G0 X170.383 Y109.040 F7200
G1 X152.304 Y90.960 E14.22620 F3600
G0 X152.870 Y90.960 F7200
G1 X170.949 Y109.040 E15.07658 F3600
G0 X171.514 Y109.040 F7200
G1 X153.435 Y90.960 E15.92697 F3600
G0 X154.001 Y90.960 F7200
G1 X172.080 Y109.040 E16.77735 F3600
G0 X172.646 Y109.040 F7200
G1 X154.567 Y90.960 E17.62774 F3600
G0 X155.132 Y90.960 F7200
G1 X173.212 Y109.040 E18.47812 F3600
G0 X173.777 Y109.040 F7200
G1 X155.698 Y90.960 E19.32850 F3600
G0 X156.264 Y90.960 F7200
G1 X174.343 Y109.040 E20.17889 F3600
G0 X174.909 Y109.040 F7200
G1 X156.830 Y90.960 E21.02927 F3600
G0 X157.395 Y90.960 F7200
G1 X175.474 Y109.040 E21.87966 F3600
G0 X176.040 Y109.040 F7200
G1 X157.961 Y90.960 E22.73004 F3600
G0 X158.527 Y90.960 F7200
G1 X176.606 Y109.040 E23.58042 F3600
G0 X177.039 Y108.908 F7200
G1 X159.092 Y90.960 E24.42460 F3600
G0 X159.658 Y90.960 F7200
G1 X177.039 Y108.342 E25.24217 F3600
G0 X177.039 Y107.776 F7200
G1 X160.224 Y90.960 E26.03314 F3600
G0 X160.789 Y90.960 F7200
G1 X177.039 Y107.211 E26.79749 F3600
G0 X177.039 Y106.645 F7200
G1 X161.355 Y90.960 E27.53524 F3600
G0 X161.921 Y90.960 F7200
G1 X177.039 Y106.079 E28.24638 F3600
G0 X177.039 Y105.514 F7200
G1 X162.486 Y90.960 E28.93091 F3600
G0 X163.052 Y90.960 F7200
G1 X177.039 Y104.948 E29.58883 F3600
G0 X177.039 Y104.382 F7200
G1 X163.618 Y90.960 E30.22015 F3600
G0 X164.183 Y90.960 F7200
G1 X177.039 Y103.816 E30.82485 F3600
G0 X177.039 Y103.251 F7200
G1 X164.749 Y90.960 E31.40295 F3600
G0 X165.315 Y90.960 F7200
G1 X177.039 Y102.685 E31.95444 F3600
G0 X177.039 Y102.119 F7200
G1 X165.881 Y90.960 E32.47932 F3600
G0 X166.446 Y90.960 F7200
G1 X177.039 Y101.554 E32.97760 F3600
G0 X177.039 Y100.988 F7200
G1 X167.012 Y90.960 E33.44926 F3600
G0 X167.578 Y90.960 F7200
G1 X177.039 Y100.422 E33.89432 F3600
G0 X177.039 Y99.857 F7200
G1 X168.143 Y90.960 E34.31277 F3600
G0 X168.709 Y90.960 F7200
G1 X177.039 Y99.291 E34.70461 F3600
G0 X177.039 Y98.725 F7200
G1 X169.275 Y90.960 E35.06984 F3600
G0 X169.840 Y90.960 F7200
G1 X177.039 Y98.160 E35.40847 F3600
G0 X177.039 Y97.594 F7200
G1 X170.406 Y90.960 E35.72049 F3600
G0 X170.972 Y90.960 F7200
G1 X177.039 Y97.028 E36.00589 F3600
G0 X177.039 Y96.463 F7200
G1 X171.537 Y90.960 E36.26470 F3600
G0 X172.103 Y90.960 F7200
G1 X177.039 Y95.897 E36.49689 F3600
G0 X177.039 Y95.331 F7200
G1 X172.669 Y90.960 E36.70247 F3600
G0 X173.234 Y90.960 F7200
G1 X177.039 Y94.766 E36.88145 F3600
G0 X177.039 Y94.200 F7200
G1 X173.800 Y90.960 E37.03382 F3600
G0 X174.366 Y90.960 F7200
G1 X177.039 Y93.634 E37.15958 F3600
G0 X177.039 Y93.068 F7200
G1 X174.931 Y90.960 E37.25873 F3600
G0 X175.497 Y90.960 F7200
G1 X177.039 Y92.503 E37.33127 F3600
G0 X177.039 Y91.937 F7200
G1 X176.063 Y90.960 E37.37721 F3600
G0 X176.629 Y90.960 F7200
G1 X177.039 Y91.371 E37.39654 F3600
G0 X165.292 Y109.040 F7200
G1 X147.961 Y91.708 E38.21176 F3600
G0 X147.961 Y92.274 F7200
G1 X164.726 Y109.040 E39.00036 F3600
G0 X164.161 Y109.040 F7200
G1 X147.961 Y92.840 E39.76236 F3600
G0 X147.961 Y93.405 F7200
G1 X163.595 Y109.040 E40.49775 F3600
G0 X163.029 Y109.040 F7200
G1 X147.961 Y93.971 E41.20654 F3600
G0 X147.961 Y94.537 F7200
G1 X162.464 Y109.040 E41.88871 F3600
G0 X161.898 Y109.040 F7200
G1 X147.961 Y95.102 E42.54428 F3600
G0 X147.961 Y95.668 F7200
G1 X161.332 Y109.040 E43.17324 F3600
G0 X160.766 Y109.040 F7200
G1 X147.961 Y96.234 E43.77559 F3600
G0 X147.961 Y96.799 F7200
G1 X160.201 Y109.040 E44.35133 F3600
G0 X159.635 Y109.040 F7200
G1 X147.961 Y97.365 E44.90047 F3600
G0 X147.961 Y97.931 F7200
G1 X159.069 Y109.040 E45.42299 F3600
G0 X158.504 Y109.040 F7200
G1 X147.961 Y98.496 E45.91891 F3600
G0 X147.961 Y99.062 F7200
G1 X157.938 Y109.040 E46.38822 F3600
G0 X157.372 Y109.040 F7200
G1 X147.961 Y99.628 E46.83092 F3600
G0 X147.961 Y100.193 F7200
G1 X156.807 Y109.040 E47.24702 F3600
G0 X156.241 Y109.040 F7200
G1 X147.961 Y100.759 E47.63650 F3600
G0 X147.961 Y101.325 F7200
G1 X155.675 Y109.040 E47.99938 F3600
G0 X155.110 Y109.040 F7200
G1 X147.961 Y101.890 E48.33565 F3600
G0 X147.961 Y102.456 F7200
G1 X154.544 Y109.040 E48.64531 F3600
G0 X153.978 Y109.040 F7200
G1 X147.961 Y103.022 E48.92837 F3600
G0 X147.961 Y103.588 F7200
G1 X153.413 Y109.040 E49.18481 F3600
G0 X152.847 Y109.040 F7200
G1 X147.961 Y104.153 E49.41465 F3600
G0 X147.961 Y104.719 F7200
G1 X152.281 Y109.040 E49.61788 F3600
G0 X151.716 Y109.040 F7200
G1 X147.961 Y105.285 E49.79450 F3600
G0 X147.961 Y105.850 F7200
G1 X151.150 Y109.040 E49.94451 F3600
G0 X150.584 Y109.040 F7200
G1 X147.961 Y106.416 E50.06792 F3600
G0 X147.961 Y106.982 F7200
G1 X150.018 Y109.040 E50.16472 F3600
G0 X149.453 Y109.040 F7200
G1 X147.961 Y107.547 E50.23491 F3600
G0 X147.961 Y108.113 F7200
G1 X148.887 Y109.040 E50.27849 F3600
G0 X148.321 Y109.040 F7200
G1 X147.961 Y108.679 E50.29546 F3600
; ------------------------------------
; Layer #3
; ------------------------------------
M106 S255 ;set fan speed
G92 E0 ;reset extr
G0 F3000 E-1.00000
G0 F600 Z0.800
G0 X147.961 Y94.010 F7200
G0 F3000 E0.00000
;segType:HShell
G1 X151.010 Y90.960 E0.14342 F3600
G0 X150.444 Y90.960 F7200
G1 X147.961 Y93.444 E0.26023 F3600
G0 X147.961 Y92.878 F7200
G1 X149.878 Y90.960 E0.35044 F3600
G0 X149.313 Y90.960 F7200
G1 X147.961 Y92.313 E0.41403 F3600
G0 X147.961 Y91.747 F7200
G1 X148.747 Y90.960 E0.45102 F3600
G0 X147.961 Y91.181 F7200
G1 X148.181 Y90.960 E0.46140 F3600
G0 X147.416 Y90.780 F7200
;segType:Perimeter
G1 X147.260 Y90.200 E0.48136 F2160
G1 X177.800 Y90.200 E1.49709
G1 X177.800 Y109.800 E2.14897
G1 X147.200 Y109.800 E3.16670
G1 X147.200 Y90.260 E3.81658
G0 X147.973 Y90.467 F7200
G0 X148.300 Y90.600
;segType:Loop
G1 X177.400 Y90.600 E4.78442 F3600
G1 X177.400 Y109.400 E5.40969
G1 X147.600 Y109.400 E6.40081
G1 X147.600 Y90.600 E7.02608
G1 X148.100 Y90.600 E7.04271
G0 F3000 E6.04271
G0 X148.100 Y90.600 F7200
G0 X177.043 Y109.400
G0 X176.488 Y109.040
G0 F3000 E7.04271
;segType:HShell
G1 X177.039 Y108.488 E7.06863 F3600
G0 X177.039 Y107.923 F7200
G1 X175.923 Y109.040 E7.12116 F3600
G0 X175.357 Y109.040 F7200
G1 X177.039 Y107.357 E7.20030 F3600
G0 X177.039 Y106.791 F7200
G1 X174.791 Y109.040 E7.30604 F3600
G0 X174.226 Y109.040 F7200
G1 X177.039 Y106.226 E7.43840 F3600
G0 X177.039 Y105.660 F7200
G1 X173.660 Y109.040 E7.59736 F3600
G0 X173.094 Y109.040 F7200
G1 X177.039 Y105.094 E7.78293 F3600
G0 X177.039 Y104.529 F7200
G1 X172.529 Y109.040 E7.99510 F3600
G0 X171.963 Y109.040 F7200
G1 X177.039 Y103.963 E8.23389 F3600
G0 X177.039 Y103.397 F7200
G1 X171.397 Y109.040 E8.49928 F3600
G0 X170.832 Y109.040 F7200
G1 X177.039 Y102.832 E8.79128 F3600
G0 X177.039 Y102.266 F7200
G1 X170.266 Y109.040 E9.10989 F3600
G0 X169.700 Y109.040 F7200
G1 X177.039 Y101.700 E9.45511 F3600
G0 X177.039 Y101.135 F7200
G1 X169.134 Y109.040 E9.82694 F3600
G0 X168.569 Y109.040 F7200
G1 X177.039 Y100.569 E10.22537 F3600
G0 X177.039 Y100.003 F7200
G1 X168.003 Y109.040 E10.65041 F3600
G0 X167.437 Y109.040 F7200
G1 X177.039 Y99.437 E11.10206 F3600
G0 X177.039 Y98.872 F7200
G1 X166.872 Y109.040 E11.58032 F3600
G0 X166.306 Y109.040 F7200
G1 X177.039 Y98.306 E12.08519 F3600
G0 X177.039 Y97.740 F7200
G1 X165.740 Y109.040 E12.61666 F3600
G0 X165.175 Y109.040 F7200
G1 X177.039 Y97.175 E13.17475 F3600
G0 X177.039 Y96.609 F7200
G1 X164.609 Y109.040 E13.75944 F3600
G0 X164.043 Y109.040 F7200
G1 X177.039 Y96.043 E14.37073 F3600
G0 X177.039 Y95.478 F7200
G1 X163.478 Y109.040 E15.00864 F3600
G0 X162.912 Y109.040 F7200
G1 X177.039 Y94.912 E15.67316 F3600
G0 X177.039 Y94.346 F7200
G1 X162.346 Y109.040 E16.36428 F3600
G0 X161.781 Y109.040 F7200
G1 X177.039 Y93.781 E17.08201 F3600
G0 X177.039 Y93.215 F7200
G1 X161.215 Y109.040 E17.82635 F3600
G0 X160.649 Y109.040 F7200
G1 X177.039 Y92.649 E18.59730 F3600
G0 X177.039 Y92.084 F7200
G1 X160.084 Y109.040 E19.39486 F3600
G0 X159.518 Y109.040 F7200
G1 X177.039 Y91.518 E20.21902 F3600
G0 X177.031 Y90.960 F7200
G1 X158.952 Y109.040 E21.06940 F3600
G0 X158.386 Y109.040 F7200
G1 X176.465 Y90.960 E21.91979 F3600
G0 X175.900 Y90.960 F7200
G1 X157.821 Y109.040 E22.77017 F3600
G0 X157.255 Y109.040 F7200
G1 X175.334 Y90.960 E23.62055 F3600
G0 X174.768 Y90.960 F7200
G1 X156.689 Y109.040 E24.47094 F3600
G0 X156.124 Y109.040 F7200
G1 X174.203 Y90.960 E25.32132 F3600
G0 X173.637 Y90.960 F7200
G1 X155.558 Y109.040 E26.17170 F3600
G0 X154.992 Y109.040 F7200
G1 X173.071 Y90.960 E27.02209 F3600
G0 X172.506 Y90.960 F7200
G1 X154.427 Y109.040 E27.87247 F3600
G0 X153.861 Y109.040 F7200
G1 X171.940 Y90.960 E28.72286 F3600
G0 X171.374 Y90.960 F7200
G1 X153.295 Y109.040 E29.57324 F3600
G0 X152.730 Y109.040 F7200
G1 X170.809 Y90.960 E30.42362 F3600
G0 X170.243 Y90.960 F7200
G1 X152.164 Y109.040 E31.27401 F3600
G0 X151.598 Y109.040 F7200
G1 X169.677 Y90.960 E32.12439 F3600
G0 X169.112 Y90.960 F7200
G1 X151.033 Y109.040 E32.97477 F3600
G0 X150.467 Y109.040 F7200
G1 X168.546 Y90.960 E33.82516 F3600
G0 X167.980 Y90.960 F7200
G1 X149.901 Y109.040 E34.67554 F3600
G0 X149.335 Y109.040 F7200
G1 X167.415 Y90.960 E35.52593 F3600
G0 X166.849 Y90.960 F7200
G1 X148.770 Y109.040 E36.37631 F3600
G0 X148.204 Y109.040 F7200
G1 X166.283 Y90.960 E37.22669 F3600
G0 X165.717 Y90.960 F7200
G1 X147.961 Y108.717 E38.06193 F3600
G0 X147.961 Y108.152 F7200
G1 X165.152 Y90.960 E38.87055 F3600
G0 X164.586 Y90.960 F7200
G1 X147.961 Y107.586 E39.65257 F3600
G0 X147.961 Y107.020 F7200
G1 X164.020 Y90.960 E40.40797 F3600
G0 X163.455 Y90.960 F7200
G1 X147.961 Y106.455 E41.13677 F3600
G0 X147.961 Y105.889 F7200
G1 X162.889 Y90.960 E41.83896 F3600
G0 X162.323 Y90.960 F7200
G1 X147.961 Y105.323 E42.51454 F3600
G0 X147.961 Y104.758 F7200
G1 X161.758 Y90.960 E43.16352 F3600
G0 X161.192 Y90.960 F7200
G1 X147.961 Y104.192 E43.78589 F3600
G0 X147.961 Y103.626 F7200
G1 X160.626 Y90.960 E44.38164 F3600
G0 X160.061 Y90.960 F7200
G1 X147.961 Y103.061 E44.95079 F3600
G0 X147.961 Y102.495 F7200
G1 X159.495 Y90.960 E45.49333 F3600
G0 X158.929 Y90.960 F7200
G1 X147.961 Y101.929 E46.00927 F3600
G0 X147.961 Y101.363 F7200
G1 X158.364 Y90.960 E46.49859 F3600
G0 X157.798 Y90.960 F7200
G1 X147.961 Y100.798 E46.96131 F3600
G0 X147.961 Y100.232 F7200
G1 X157.232 Y90.960 E47.39742 F3600
G0 X156.667 Y90.960 F7200
G1 X147.961 Y99.666 E47.80692 F3600
G0 X147.961 Y99.101 F7200
G1 X156.101 Y90.960 E48.18981 F3600
G0 X155.535 Y90.960 F7200
G1 X147.961 Y98.535 E48.54610 F3600
G0 X147.961 Y97.969 F7200
G1 X154.969 Y90.960 E48.87578 F3600
G0 X154.404 Y90.960 F7200
G1 X147.961 Y97.404 E49.17885 F3600
G0 X147.961 Y96.838 F7200
G1 X153.838 Y90.960 E49.45531 F3600
G0 X153.272 Y90.960 F7200
G1 X147.961 Y96.272 E49.70516 F3600
G0 X147.961 Y95.707 F7200
G1 X152.707 Y90.960 E49.92840 F3600
G0 X152.141 Y90.960 F7200
G1 X147.961 Y95.141 E50.12504 F3600
G0 X147.961 Y94.575 F7200
G1 X151.575 Y90.960 E50.29507 F3600
; ------------------------------------
; Layer #4
; ------------------------------------
G92 E0 ;reset extr
G0 F3000 E-1.00000
G0 F600 Z1.000
G0 X165.292 Y109.040 F7200
G0 F3000 E0.00000
;segType:Infill
G1 X147.961 Y91.708 E0.97826 F4500
G0 X147.600 Y90.600 F7200
G0 X147.416 Y90.780
;segType:Perimeter
G1 X147.260 Y90.200 E0.99821 F2160
G1 X177.800 Y90.200 E2.01395
G1 X177.800 Y109.800 E2.66583
G1 X147.200 Y109.800 E3.68356
G1 X147.200 Y90.260 E4.33344
G0 X147.973 Y90.467 F7200
G0 X148.300 Y90.600
;segType:Loop
G1 X177.400 Y90.600 E5.30128 F3600
G1 X177.400 Y109.400 E5.92655
G1 X147.600 Y109.400 E6.91767
G1 X147.600 Y90.600 E7.54294
G1 X148.100 Y90.600 E7.55957
G0 F3000 E6.55957
G0 X151.738 Y90.960 F7200
G0 F3000 E7.55957
;segType:Infill
G1 X169.817 Y109.040 E8.58003 F4500
G0 X174.343 Y109.040 F7200
G1 X156.264 Y90.960 E9.60049 F4500
G0 X160.789 Y90.960 F7200
G1 X177.039 Y107.211 E10.51771 F4500
G0 X177.039 Y102.685 F7200
G1 X165.315 Y90.960 E11.17950 F4500
G0 X169.840 Y90.960 F7200
G1 X177.039 Y98.160 E11.58585 F4500
G0 X177.039 Y93.634 F7200
G1 X174.366 Y90.960 E11.73677 F4500
G0 X151.715 Y109.040 F7200
G1 X147.961 Y105.285 E11.94871 F4500
G0 X147.961 Y100.759 F7200
G1 X156.241 Y109.040 E12.41609 F4500
G0 X160.766 Y109.040 F7200
G1 X147.961 Y96.234 E13.13891 F4500
; ------------------------------------
; Layer #5
; ------------------------------------
G92 E0 ;reset extr
G0 F3000 E-1.00000
G0 F600 Z1.200
G0 X149.313 Y90.960 F7200
G0 F3000 E0.00000
;segType:Infill
G1 X147.961 Y92.313 E0.07631 F4500
G0 X148.300 Y90.600 F7200
;segType:Loop
G1 X177.400 Y90.600 E1.04416 F3600
G1 X177.400 Y109.400 E1.66942
G1 X147.600 Y109.400 E2.66055
G1 X147.600 Y90.600 E3.28581
G1 X148.100 Y90.600 E3.30245
G0 X148.100 Y90.600 F7200
G0 X147.600 Y90.731
G0 X147.416 Y90.780
;segType:Perimeter
G1 X147.260 Y90.200 E3.32240 F2160
G1 X177.800 Y90.200 E4.33814
G1 X177.800 Y109.800 E4.99001
G1 X147.200 Y109.800 E6.00775
G1 X147.200 Y90.260 E6.65763
G0 X147.973 Y90.467 F7200
G0 F3000 E5.65763
G0 X147.961 Y96.838 F7200
G0 F3000 E6.65763
;segType:Infill
G1 X153.838 Y90.960 E6.98938 F4500
G0 X176.488 Y109.040 F7200
G1 X177.039 Y108.488 E7.02048 F4500
G0 X177.039 Y103.963 F7200
G1 X171.963 Y109.040 E7.30703 F4500
G0 X167.437 Y109.040 F7200
G1 X177.039 Y99.437 E7.84901 F4500
G0 X177.039 Y94.912 F7200
G1 X162.912 Y109.040 E8.64643 F4500
G0 X158.386 Y109.040 F7200
G1 X176.465 Y90.960 E9.66689 F4500
G0 X171.940 Y90.960 F7200
G1 X153.861 Y109.040 E10.68735 F4500
G0 X149.335 Y109.040 F7200
G1 X167.415 Y90.960 E11.70781 F4500
G0 X162.889 Y90.960 F7200
G1 X147.961 Y105.889 E12.55043 F4500
G0 X147.961 Y101.363 F7200
G1 X158.364 Y90.960 E13.13763 F4500
; ------------------------------------
; Layer #6
; ------------------------------------
G92 E0 ;reset extr
G0 F3000 E-1.00000
G0 F600 Z1.400
G0 X165.292 Y109.040 F7200
G0 F3000 E0.00000
;segType:Infill
G1 X147.961 Y91.708 E0.97826 F4500
G0 X147.600 Y90.600 F7200
G0 X147.416 Y90.780
;segType:Perimeter
G1 X147.260 Y90.200 E0.99821 F2160
G1 X177.800 Y90.200 E2.01395
G1 X177.800 Y109.800 E2.66583
G1 X147.200 Y109.800 E3.68356
G1 X147.200 Y90.260 E4.33344
G0 X147.973 Y90.467 F7200
G0 X148.300 Y90.600
;segType:Loop
G1 X177.400 Y90.600 E5.30128 F3600
G1 X177.400 Y109.400 E5.92655
G1 X147.600 Y109.400 E6.91767
G1 X147.600 Y90.600 E7.54294
G1 X148.100 Y90.600 E7.55957
G0 F3000 E6.55957
G0 X151.738 Y90.960 F7200
G0 F3000 E7.55957
;segType:Infill
G1 X169.817 Y109.040 E8.58003 F4500
G0 X174.343 Y109.040 F7200
G1 X156.264 Y90.960 E9.60049 F4500
G0 X160.789 Y90.960 F7200
G1 X177.039 Y107.211 E10.51771 F4500
G0 X177.039 Y102.685 F7200
G1 X165.315 Y90.960 E11.17950 F4500
G0 X169.840 Y90.960 F7200
G1 X177.039 Y98.160 E11.58585 F4500
G0 X174.366 Y90.960 F7200
G1 X177.039 Y93.634 E11.73677 F4500
G0 X151.715 Y109.040 F7200
G1 X147.961 Y105.285 E11.94871 F4500
G0 X147.961 Y100.759 F7200
G1 X156.241 Y109.040 E12.41609 F4500
G0 X160.766 Y109.040 F7200
G1 X147.961 Y96.234 E13.13891 F4500
; ------------------------------------
; Layer #7
; ------------------------------------
G92 E0 ;reset extr
G0 F3000 E-1.00000
G0 F600 Z1.600
G0 X149.313 Y90.960 F7200
G0 F3000 E0.00000
;segType:Infill
G1 X147.961 Y92.313 E0.07631 F4500
G0 X148.300 Y90.600 F7200
;segType:Loop
G1 X177.400 Y90.600 E1.04416 F3600
G1 X177.400 Y109.400 E1.66942
G1 X147.600 Y109.400 E2.66055
G1 X147.600 Y90.600 E3.28581
G1 X148.100 Y90.600 E3.30244
G0 X148.100 Y90.600 F7200
G0 X147.600 Y90.731
G0 X147.416 Y90.780
;segType:Perimeter
G1 X147.260 Y90.200 E3.32240 F2160
G1 X177.800 Y90.200 E4.33813
G1 X177.800 Y109.800 E4.99001
G1 X147.200 Y109.800 E6.00774
G1 X147.200 Y90.260 E6.65762
G0 X147.973 Y90.467 F7200
G0 F3000 E5.65762
G0 X147.961 Y96.838 F7200
G0 F3000 E6.65762
;segType:Infill
G1 X153.838 Y90.960 E6.98937 F4500
G0 X158.364 Y90.960 F7200
G1 X147.961 Y101.363 E7.57656 F4500
G0 X147.961 Y105.889 F7200
G1 X162.889 Y90.960 E8.41919 F4500
G0 X167.415 Y90.960 F7200
G1 X149.335 Y109.040 E9.43965 F4500
G0 X162.912 Y109.040 F7200
G1 X177.039 Y94.912 E10.23707 F4500
G0 X177.039 Y99.437 F7200
G1 X167.437 Y109.040 E10.77905 F4500
G0 X176.488 Y109.040 F7200
G1 X177.039 Y108.488 E10.81015 F4500
G0 X177.039 Y103.963 F7200
G1 X171.963 Y109.040 E11.09670 F4500
G0 X158.386 Y109.040 F7200
G1 X176.466 Y90.960 E12.11716 F4500
G0 X171.940 Y90.960 F7200
G1 X153.861 Y109.040 E13.13761 F4500
; ------------------------------------
; Layer #8
; ------------------------------------
G92 E0 ;reset extr
G0 F3000 E-1.00000
G0 F600 Z1.800
G0 X165.292 Y109.040 F7200
G0 F3000 E0.00000
;segType:Infill
G1 X147.961 Y91.708 E0.97826 F4500
G0 X147.600 Y90.600 F7200
G0 X147.416 Y90.780
;segType:Perimeter
G1 X147.260 Y90.200 E0.99821 F2160
G1 X177.800 Y90.200 E2.01395
G1 X177.800 Y109.800 E2.66583
G1 X147.200 Y109.800 E3.68356
G1 X147.200 Y90.260 E4.33344
G0 X147.973 Y90.467 F7200
G0 X148.300 Y90.600
;segType:Loop
G1 X177.400 Y90.600 E5.30128 F3600
G1 X177.400 Y109.400 E5.92655
G1 X147.600 Y109.400 E6.91767
G1 X147.600 Y90.600 E7.54294
G1 X148.100 Y90.600 E7.55957
G0 F3000 E6.55957
G0 X151.738 Y90.960 F7200
G0 F3000 E7.55957
;segType:Infill
G1 X169.817 Y109.040 E8.58003 F4500
G0 X174.343 Y109.040 F7200
G1 X156.264 Y90.960 E9.60049 F4500
G0 X160.789 Y90.960 F7200
G1 X177.039 Y107.211 E10.51772 F4500
G0 X177.039 Y102.685 F7200
G1 X165.315 Y90.960 E11.17950 F4500
G0 X169.840 Y90.960 F7200
G1 X177.039 Y98.160 E11.58585 F4500
G0 X177.039 Y93.634 F7200
G1 X174.366 Y90.960 E11.73677 F4500
G0 X151.715 Y109.040 F7200
G1 X147.961 Y105.285 E11.94871 F4500
G0 X147.961 Y100.759 F7200
G1 X156.241 Y109.040 E12.41609 F4500
G0 X160.766 Y109.040 F7200
G1 X147.961 Y96.234 E13.13891 F4500
; ------------------------------------
; Layer #9
; ------------------------------------
G92 E0 ;reset extr
G0 F3000 E-1.00000
G0 F600 Z2.000
G0 X149.313 Y90.960 F7200
G0 F3000 E0.00000
;segType:Infill
G1 X147.961 Y92.313 E0.07632 F4500
G0 X148.300 Y90.600 F7200
;segType:Loop
G1 X177.400 Y90.600 E1.04416 F3600
G1 X177.400 Y109.400 E1.66942
G1 X147.600 Y109.400 E2.66055
G1 X147.600 Y90.600 E3.28581
G1 X148.100 Y90.600 E3.30244
G0 X148.100 Y90.600 F7200
G0 X147.600 Y90.731
G0 X147.416 Y90.780
;segType:Perimeter
G1 X147.260 Y90.200 E3.32240 F2160
G1 X177.800 Y90.200 E4.33814
G1 X177.800 Y109.800 E4.99001
G1 X147.200 Y109.800 E6.00774
G1 X147.200 Y90.260 E6.65762
G0 X147.973 Y90.467 F7200
G0 F3000 E5.65762
G0 X147.961 Y96.838 F7200
G0 F3000 E6.65762
;segType:Infill
G1 X153.838 Y90.960 E6.98938 F4500
G0 X176.488 Y109.040 F7200
G1 X177.039 Y108.488 E7.02048 F4500
G0 X177.039 Y103.963 F7200
G1 X171.963 Y109.040 E7.30702 F4500
G0 X167.437 Y109.040 F7200
G1 X177.039 Y99.438 E7.84900 F4500
G0 X177.039 Y94.912 F7200
G1 X162.912 Y109.040 E8.64642 F4500
G0 X158.386 Y109.040 F7200
G1 X176.466 Y90.960 E9.66688 F4500
G0 X171.940 Y90.960 F7200
G1 X153.861 Y109.040 E10.68734 F4500
G0 X149.335 Y109.040 F7200
G1 X167.415 Y90.960 E11.70780 F4500
G0 X162.889 Y90.960 F7200
G1 X147.961 Y105.889 E12.55043 F4500
G0 X147.961 Y101.363 F7200
G1 X158.364 Y90.960 E13.13762 F4500
; ------------------------------------
; Layer #10
; ------------------------------------
G92 E0 ;reset extr
G0 F3000 E-1.00000
G0 F600 Z2.200
G0 X165.292 Y109.040 F7200
G0 F3000 E0.00000
;segType:Infill
G1 X147.961 Y91.708 E0.97826 F4500
G0 X147.600 Y90.600 F7200
G0 X147.416 Y90.780
;segType:Perimeter
G1 X147.260 Y90.200 E0.99821 F2160
G1 X177.800 Y90.200 E2.01395
G1 X177.800 Y109.800 E2.66583
G1 X147.200 Y109.800 E3.68356
G1 X147.200 Y90.260 E4.33344
G0 X147.973 Y90.467 F7200
G0 X148.300 Y90.600
;segType:Loop
G1 X177.400 Y90.600 E5.30128 F3600
G1 X177.400 Y109.400 E5.92655
G1 X147.600 Y109.400 E6.91767
G1 X147.600 Y90.600 E7.54294
G1 X148.100 Y90.600 E7.55957
G0 F3000 E6.55957
G0 X151.738 Y90.960 F7200
G0 F3000 E7.55957
;segType:Infill
G1 X169.817 Y109.040 E8.58003 F4500
G0 X174.343 Y109.040 F7200
G1 X156.264 Y90.960 E9.60049 F4500
G0 X160.789 Y90.960 F7200
G1 X177.039 Y107.211 E10.51772 F4500
G0 X177.039 Y102.685 F7200
G1 X165.315 Y90.960 E11.17951 F4500
G0 X169.840 Y90.960 F7200
G1 X177.039 Y98.160 E11.58586 F4500
G0 X174.366 Y90.960 F7200
G1 X177.039 Y93.634 E11.73677 F4500
G0 X151.716 Y109.040 F7200
G1 X147.961 Y105.285 E11.94871 F4500
G0 X147.961 Y100.759 F7200
G1 X156.241 Y109.040 E12.41610 F4500
G0 X160.766 Y109.040 F7200
G1 X147.961 Y96.234 E13.13892 F4500
; ------------------------------------
; Layer #11
; ------------------------------------
G92 E0 ;reset extr
G0 F3000 E-1.00000
G0 F600 Z2.400
G0 X149.313 Y90.960 F7200
G0 F3000 E0.00000
;segType:Infill
G1 X147.961 Y92.313 E0.07631 F4500
G0 X148.300 Y90.600 F7200
;segType:Loop
G1 X177.400 Y90.600 E1.04416 F3600
G1 X177.400 Y109.400 E1.66942
G1 X147.600 Y109.400 E2.66055
G1 X147.600 Y90.600 E3.28581
G1 X148.100 Y90.600 E3.30245
G0 X148.100 Y90.600 F7200
G0 X147.600 Y90.731
G0 X147.416 Y90.780
;segType:Perimeter
G1 X147.260 Y90.200 E3.32240 F2160
G1 X177.800 Y90.200 E4.33814
G1 X177.800 Y109.800 E4.99001
G1 X147.200 Y109.800 E6.00775
G1 X147.200 Y90.260 E6.65763
G0 X147.973 Y90.467 F7200
G0 F3000 E5.65763
G0 X147.961 Y96.838 F7200
G0 F3000 E6.65763
;segType:Infill
G1 X153.838 Y90.960 E6.98938 F4500
G0 X158.364 Y90.960 F7200
G1 X147.961 Y101.363 E7.57657 F4500
G0 X147.961 Y105.889 F7200
G1 X162.889 Y90.960 E8.41920 F4500
G0 X167.415 Y90.960 F7200
G1 X149.335 Y109.040 E9.43966 F4500
G0 X162.912 Y109.040 F7200
G1 X177.039 Y94.912 E10.23707 F4500
G0 X177.039 Y99.437 F7200
G1 X167.437 Y109.040 E10.77906 F4500
G0 X176.488 Y109.040 F7200
G1 X177.039 Y108.488 E10.81016 F4500
G0 X177.039 Y103.963 F7200
G1 X171.963 Y109.040 E11.09670 F4500
G0 X158.386 Y109.040 F7200
G1 X176.465 Y90.960 E12.11716 F4500
G0 X171.940 Y90.960 F7200
G1 X153.861 Y109.040 E13.13762 F4500
; ------------------------------------
; Layer #12
; ------------------------------------
G92 E0 ;reset extr
G0 F3000 E-1.00000
G0 F600 Z2.600
G0 X165.292 Y109.040 F7200
G0 F3000 E0.00000
;segType:Infill
G1 X147.961 Y91.708 E0.97826 F4500
G0 X147.600 Y90.600 F7200
G0 X147.416 Y90.780
;segType:Perimeter
G1 X147.260 Y90.200 E0.99821 F2160
G1 X177.800 Y90.200 E2.01395
G1 X177.800 Y109.800 E2.66583
G1 X147.200 Y109.800 E3.68356
G1 X147.200 Y90.260 E4.33344
G0 X147.973 Y90.467 F7200
G0 X148.300 Y90.600
;segType:Loop
G1 X177.400 Y90.600 E5.30128 F3600
G1 X177.400 Y109.400 E5.92655
G1 X147.600 Y109.400 E6.91767
G1 X147.600 Y90.600 E7.54294
G1 X148.100 Y90.600 E7.55957
G0 F3000 E6.55957
G0 X151.738 Y90.960 F7200
G0 F3000 E7.55957
;segType:Infill
G1 X169.817 Y109.040 E8.58003 F4500
G0 X174.343 Y109.040 F7200
G1 X156.264 Y90.960 E9.60049 F4500
G0 X160.789 Y90.960 F7200
G1 X177.039 Y107.211 E10.51772 F4500
G0 X177.039 Y102.685 F7200
G1 X165.315 Y90.960 E11.17951 F4500
G0 X169.840 Y90.960 F7200
G1 X177.039 Y98.160 E11.58586 F4500
G0 X177.039 Y93.634 F7200
G1 X174.366 Y90.960 E11.73677 F4500
G0 X151.715 Y109.040 F7200
G1 X147.961 Y105.285 E11.94871 F4500
G0 X147.961 Y100.759 F7200
G1 X156.241 Y109.040 E12.41610 F4500
G0 X160.766 Y109.040 F7200
G1 X147.961 Y96.234 E13.13892 F4500
; ------------------------------------
; Layer #13
; ------------------------------------
G92 E0 ;reset extr
G0 F3000 E-1.00000
G0 F600 Z2.800
G0 X149.313 Y90.960 F7200
G0 F3000 E0.00000
;segType:Infill
G1 X147.961 Y92.312 E0.07631 F4500
G0 X148.300 Y90.600 F7200
;segType:Loop
G1 X177.400 Y90.600 E1.04416 F3600
G1 X177.400 Y109.400 E1.66942
G1 X147.600 Y109.400 E2.66055
G1 X147.600 Y90.600 E3.28581
G1 X148.100 Y90.600 E3.30244
G0 X148.100 Y90.600 F7200
G0 X147.600 Y90.731
G0 X147.416 Y90.780
;segType:Perimeter
G1 X147.260 Y90.200 E3.32240 F2160
G1 X177.800 Y90.200 E4.33814
G1 X177.800 Y109.800 E4.99001
G1 X147.200 Y109.800 E6.00774
G1 X147.200 Y90.260 E6.65762
G0 X147.973 Y90.467 F7200
G0 F3000 E5.65762
G0 X147.961 Y96.838 F7200
G0 F3000 E6.65762
;segType:Infill
G1 X153.838 Y90.960 E6.98938 F4500
G0 X176.488 Y109.040 F7200
G1 X177.039 Y108.488 E7.02048 F4500
G0 X177.039 Y103.963 F7200
G1 X171.963 Y109.040 E7.30703 F4500
G0 X167.437 Y109.040 F7200
G1 X177.039 Y99.437 E7.84901 F4500
G0 X177.039 Y94.912 F7200
G1 X162.912 Y109.040 E8.64643 F4500
G0 X158.386 Y109.040 F7200
G1 X176.465 Y90.960 E9.66689 F4500
G0 X171.940 Y90.960 F7200
G1 X153.861 Y109.040 E10.68735 F4500
G0 X149.335 Y109.040 F7200
G1 X167.414 Y90.960 E11.70781 F4500
G0 X162.889 Y90.960 F7200
G1 X147.961 Y105.889 E12.55043 F4500
G0 X147.961 Y101.363 F7200
G1 X158.364 Y90.960 E13.13762 F4500
; ------------------------------------
; Layer #14
; ------------------------------------
G92 E0 ;reset extr
G0 F3000 E-1.00000
G0 F600 Z3.000
G0 X165.292 Y109.040 F7200
G0 F3000 E0.00000
;segType:Infill
G1 X147.961 Y91.708 E0.97826 F4500
G0 X147.600 Y90.600 F7200
G0 X147.416 Y90.780
;segType:Perimeter
G1 X147.260 Y90.200 E0.99821 F2160
G1 X177.800 Y90.200 E2.01395
G1 X177.800 Y109.800 E2.66582
G1 X147.200 Y109.800 E3.68355
G1 X147.200 Y90.260 E4.33343
G0 X147.973 Y90.467 F7200
G0 X148.300 Y90.600
;segType:Loop
G1 X177.400 Y90.600 E5.30127 F3600
G1 X177.400 Y109.400 E5.92654
G1 X147.600 Y109.400 E6.91766
G1 X147.600 Y90.600 E7.54293
G1 X148.100 Y90.600 E7.55956
G0 F3000 E6.55956
G0 X151.738 Y90.960 F7200
G0 F3000 E7.55956
;segType:Infill
G1 X169.817 Y109.040 E8.58002 F4500
G0 X174.343 Y109.040 F7200
G1 X156.264 Y90.960 E9.60048 F4500
G0 X160.789 Y90.960 F7200
G1 X177.039 Y107.211 E10.51770 F4500
G0 X177.039 Y102.685 F7200
G1 X165.315 Y90.960 E11.17949 F4500
G0 X169.840 Y90.960 F7200
G1 X177.039 Y98.160 E11.58584 F4500
G0 X174.366 Y90.960 F7200
G1 X177.039 Y93.634 E11.73675 F4500
G0 X151.715 Y109.040 F7200
G1 X147.961 Y105.285 E11.94870 F4500
G0 X147.961 Y100.759 F7200
G1 X156.241 Y109.040 E12.41608 F4500
G0 X160.766 Y109.040 F7200
G1 X147.961 Y96.234 E13.13890 F4500
; ------------------------------------
; Layer #15
; ------------------------------------
G92 E0 ;reset extr
G0 F3000 E-1.00000
G0 F600 Z3.200
G0 X149.313 Y90.960 F7200
G0 F3000 E0.00000
;segType:Infill
G1 X147.961 Y92.313 E0.07632 F4500
G0 X148.300 Y90.600 F7200
;segType:Loop
G1 X177.400 Y90.600 E1.04416 F3600
G1 X177.400 Y109.400 E1.66942
G1 X147.600 Y109.400 E2.66055
G1 X147.600 Y90.600 E3.28582
G1 X148.100 Y90.600 E3.30245
G0 X148.100 Y90.600 F7200
G0 X147.600 Y90.731
G0 X147.416 Y90.780
;segType:Perimeter
G1 X147.260 Y90.200 E3.32240 F2160
G1 X177.800 Y90.200 E4.33814
G1 X177.800 Y109.800 E4.99001
G1 X147.200 Y109.800 E6.00775
G1 X147.200 Y90.260 E6.65763
G0 X147.973 Y90.467 F7200
G0 F3000 E5.65763
G0 X147.961 Y96.838 F7200
G0 F3000 E6.65763
;segType:Infill
G1 X153.838 Y90.960 E6.98938 F4500
G0 X158.364 Y90.960 F7200
G1 X147.961 Y101.363 E7.57657 F4500
G0 X147.961 Y105.889 F7200
G1 X162.889 Y90.960 E8.41920 F4500
G0 X167.415 Y90.960 F7200
G1 X149.335 Y109.040 E9.43966 F4500
G0 X162.912 Y109.040 F7200
G1 X177.039 Y94.912 E10.23708 F4500
G0 X177.039 Y99.438 F7200
G1 X167.437 Y109.040 E10.77906 F4500
G0 X176.488 Y109.040 F7200
G1 X177.039 Y108.488 E10.81016 F4500
G0 X177.039 Y103.963 F7200
G1 X171.963 Y109.040 E11.09670 F4500
G0 X158.386 Y109.040 F7200
G1 X176.466 Y90.960 E12.11716 F4500
G0 X171.940 Y90.960 F7200
G1 X153.861 Y109.040 E13.13763 F4500
; ------------------------------------
; Layer #16
; ------------------------------------
G92 E0 ;reset extr
G0 F3000 E-1.00000
G0 F600 Z3.400
G0 X165.292 Y109.040 F7200
G0 F3000 E0.00000
;segType:Infill
G1 X147.961 Y91.708 E0.97826 F4500
G0 X147.600 Y90.600 F7200
G0 X147.416 Y90.780
;segType:Perimeter
G1 X147.260 Y90.200 E0.99821 F2160
G1 X177.800 Y90.200 E2.01395
G1 X177.800 Y109.800 E2.66583
G1 X147.200 Y109.800 E3.68356
G1 X147.200 Y90.260 E4.33344
G0 X147.973 Y90.467 F7200
G0 X148.300 Y90.600
;segType:Loop
G1 X177.400 Y90.600 E5.30128 F3600
G1 X177.400 Y109.400 E5.92655
G1 X147.600 Y109.400 E6.91767
G1 X147.600 Y90.600 E7.54294
G1 X148.100 Y90.600 E7.55957
G0 F3000 E6.55957
G0 X151.738 Y90.960 F7200
G0 F3000 E7.55957
;segType:Infill
G1 X169.817 Y109.040 E8.58003 F4500
G0 X174.343 Y109.040 F7200
G1 X156.264 Y90.960 E9.60049 F4500
G0 X160.789 Y90.960 F7200
G1 X177.039 Y107.211 E10.51772 F4500
G0 X177.039 Y102.685 F7200
G1 X165.315 Y90.960 E11.17951 F4500
G0 X169.840 Y90.960 F7200
G1 X177.039 Y98.160 E11.58586 F4500
G0 X177.039 Y93.634 F7200
G1 X174.366 Y90.960 E11.73677 F4500
G0 X151.716 Y109.040 F7200
G1 X147.961 Y105.285 E11.94871 F4500
G0 X147.961 Y100.759 F7200
G1 X156.241 Y109.040 E12.41610 F4500
G0 X160.766 Y109.040 F7200
G1 X147.961 Y96.234 E13.13892 F4500
; ------------------------------------
; Layer #17
; ------------------------------------
G92 E0 ;reset extr
G0 F3000 E-1.00000
G0 F600 Z3.600
G0 X149.313 Y90.960 F7200
G0 F3000 E0.00000
;segType:Infill
G1 X147.961 Y92.313 E0.07631 F4500
G0 X148.300 Y90.600 F7200
;segType:Loop
G1 X177.400 Y90.600 E1.04416 F3600
G1 X177.400 Y109.400 E1.66942
G1 X147.600 Y109.400 E2.66055
G1 X147.600 Y90.600 E3.28581
G1 X148.100 Y90.600 E3.30245
G0 X148.100 Y90.600 F7200
G0 X147.600 Y90.731
G0 X147.416 Y90.780
;segType:Perimeter
G1 X147.260 Y90.200 E3.32240 F2160
G1 X177.800 Y90.200 E4.33814
G1 X177.800 Y109.800 E4.99001
G1 X147.200 Y109.800 E6.00775
G1 X147.200 Y90.260 E6.65763
G0 X147.973 Y90.467 F7200
G0 F3000 E5.65763
G0 X147.961 Y96.838 F7200
G0 F3000 E6.65763
;segType:Infill
G1 X153.838 Y90.960 E6.98938 F4500
G0 X176.488 Y109.040 F7200
G1 X177.039 Y108.488 E7.02048 F4500
G0 X177.039 Y103.963 F7200
G1 X171.963 Y109.040 E7.30703 F4500
G0 X167.437 Y109.040 F7200
G1 X177.039 Y99.437 E7.84901 F4500
G0 X177.039 Y94.912 F7200
G1 X162.912 Y109.040 E8.64642 F4500
G0 X158.386 Y109.040 F7200
G1 X176.465 Y90.960 E9.66688 F4500
G0 X171.940 Y90.960 F7200
G1 X153.861 Y109.040 E10.68734 F4500
G0 X149.335 Y109.040 F7200
G1 X167.415 Y90.960 E11.70780 F4500
G0 X162.889 Y90.960 F7200
G1 X147.961 Y105.889 E12.55043 F4500
G0 X147.961 Y101.363 F7200
G1 X158.364 Y90.960 E13.13762 F4500
; ------------------------------------
; Layer #18
; ------------------------------------
G92 E0 ;reset extr
G0 F3000 E-1.00000
G0 F600 Z3.800
G0 X165.292 Y109.040 F7200
G0 F3000 E0.00000
;segType:Infill
G1 X147.961 Y91.708 E0.97826 F4500
G0 X147.600 Y90.600 F7200
G0 X147.416 Y90.780
;segType:Perimeter
G1 X147.260 Y90.200 E0.99821 F2160
G1 X177.800 Y90.200 E2.01395
G1 X177.800 Y109.800 E2.66583
G1 X147.200 Y109.800 E3.68356
G1 X147.200 Y90.260 E4.33344
G0 X147.973 Y90.467 F7200
G0 X148.300 Y90.600
;segType:Loop
G1 X177.400 Y90.600 E5.30128 F3600
G1 X177.400 Y109.400 E5.92655
G1 X147.600 Y109.400 E6.91767
G1 X147.600 Y90.600 E7.54294
G1 X148.100 Y90.600 E7.55957
G0 F3000 E6.55957
G0 X151.738 Y90.960 F7200
G0 F3000 E7.55957
;segType:Infill
G1 X169.817 Y109.040 E8.58003 F4500
G0 X174.343 Y109.040 F7200
G1 X156.264 Y90.960 E9.60049 F4500
G0 X160.789 Y90.960 F7200
G1 X177.039 Y107.211 E10.51772 F4500
G0 X177.039 Y102.685 F7200
G1 X165.315 Y90.960 E11.17951 F4500
G0 X169.840 Y90.960 F7200
G1 X177.039 Y98.160 E11.58586 F4500
G0 X174.366 Y90.960 F7200
G1 X177.039 Y93.634 E11.73677 F4500
G0 X151.715 Y109.040 F7200
G1 X147.961 Y105.285 E11.94871 F4500
G0 X147.961 Y100.759 F7200
G1 X156.241 Y109.040 E12.41610 F4500
G0 X160.766 Y109.040 F7200
G1 X147.961 Y96.234 E13.13892 F4500
; ------------------------------------
; Layer #19
; ------------------------------------
G92 E0 ;reset extr
G0 F3000 E-1.00000
G0 F600 Z4.000
G0 X149.313 Y90.960 F7200
G0 F3000 E0.00000
;segType:Infill
G1 X147.961 Y92.312 E0.07631 F4500
G0 X148.300 Y90.600 F7200
;segType:Loop
G1 X177.400 Y90.600 E1.04415 F3600
G1 X177.400 Y109.400 E1.66942
G1 X147.600 Y109.400 E2.66054
G1 X147.600 Y90.600 E3.28581
G1 X148.100 Y90.600 E3.30244
G0 X148.100 Y90.600 F7200
G0 X147.600 Y90.731
G0 X147.416 Y90.780
;segType:Perimeter
G1 X147.260 Y90.200 E3.32240 F2160
G1 X177.800 Y90.200 E4.33813
G1 X177.800 Y109.800 E4.99001
G1 X147.200 Y109.800 E6.00774
G1 X147.200 Y90.260 E6.65762
G0 X147.973 Y90.467 F7200
G0 F3000 E5.65762
G0 X147.961 Y96.838 F7200
G0 F3000 E6.65762
;segType:Infill
G1 X153.838 Y90.960 E6.98937 F4500
G0 X158.364 Y90.960 F7200
G1 X147.961 Y101.363 E7.57656 F4500
G0 X147.961 Y105.889 F7200
G1 X162.889 Y90.960 E8.41918 F4500
G0 X167.414 Y90.960 F7200
G1 X149.335 Y109.040 E9.43964 F4500
G0 X162.912 Y109.040 F7200
G1 X177.039 Y94.912 E10.23706 F4500
G0 X177.039 Y99.437 F7200
G1 X167.437 Y109.040 E10.77904 F4500
G0 X176.488 Y109.040 F7200
G1 X177.039 Y108.488 E10.81015 F4500
G0 X177.039 Y103.963 F7200
G1 X171.963 Y109.040 E11.09669 F4500
G0 X158.386 Y109.040 F7200
G1 X176.465 Y90.960 E12.11715 F4500
G0 X171.940 Y90.960 F7200
G1 X153.861 Y109.040 E13.13761 F4500
; ------------------------------------
; Layer #20
; ------------------------------------
G92 E0 ;reset extr
G0 F3000 E-1.00000
G0 F600 Z4.200
G0 X165.292 Y109.040 F7200
G0 F3000 E0.00000
;segType:Infill
G1 X147.961 Y91.708 E0.97826 F4500
G0 X147.600 Y90.600 F7200
G0 X147.416 Y90.780
;segType:Perimeter
G1 X147.260 Y90.200 E0.99821 F2160
G1 X177.800 Y90.200 E2.01395
G1 X177.800 Y109.800 E2.66582
G1 X147.200 Y109.800 E3.68355
G1 X147.200 Y90.260 E4.33343
G0 X147.973 Y90.467 F7200
G0 X148.300 Y90.600
;segType:Loop
G1 X177.400 Y90.600 E5.30127 F3600
G1 X177.400 Y109.400 E5.92654
G1 X147.600 Y109.400 E6.91766
G1 X147.600 Y90.600 E7.54293
G1 X148.100 Y90.600 E7.55956
G0 F3000 E6.55956
G0 X151.738 Y90.960 F7200
G0 F3000 E7.55956
;segType:Infill
G1 X169.817 Y109.040 E8.58002 F4500
G0 X174.343 Y109.040 F7200
G1 X156.264 Y90.960 E9.60048 F4500
G0 X160.789 Y90.960 F7200
G1 X177.039 Y107.211 E10.51770 F4500
G0 X177.039 Y102.685 F7200
G1 X165.315 Y90.960 E11.17949 F4500
G0 X169.840 Y90.960 F7200
G1 X177.039 Y98.160 E11.58584 F4500
G0 X177.039 Y93.634 F7200
G1 X174.366 Y90.960 E11.73675 F4500
G0 X151.715 Y109.040 F7200
G1 X147.961 Y105.285 E11.94870 F4500
G0 X147.961 Y100.759 F7200
G1 X156.241 Y109.040 E12.41608 F4500
G0 X160.766 Y109.040 F7200
G1 X147.961 Y96.234 E13.13890 F4500
; ------------------------------------
; Layer #21
; ------------------------------------
G92 E0 ;reset extr
G0 F3000 E-1.00000
G0 F600 Z4.400
G0 X149.313 Y90.960 F7200
G0 F3000 E0.00000
;segType:Infill
G1 X147.961 Y92.313 E0.07632 F4500
G0 X148.300 Y90.600 F7200
;segType:Loop
G1 X177.400 Y90.600 E1.04416 F3600
G1 X177.400 Y109.400 E1.66943
G1 X147.600 Y109.400 E2.66055
G1 X147.600 Y90.600 E3.28582
G1 X148.100 Y90.600 E3.30245
G0 X148.100 Y90.600 F7200
G0 X147.600 Y90.731
G0 X147.416 Y90.780
;segType:Perimeter
G1 X147.260 Y90.200 E3.32241 F2160
G1 X177.800 Y90.200 E4.33814
G1 X177.800 Y109.800 E4.99002
G1 X147.200 Y109.800 E6.00775
G1 X147.200 Y90.260 E6.65763
G0 X147.973 Y90.467 F7200
G0 F3000 E5.65763
G0 X147.961 Y96.838 F7200
G0 F3000 E6.65763
;segType:Infill
G1 X153.838 Y90.960 E6.98939 F4500
G0 X176.488 Y109.040 F7200
G1 X177.039 Y108.488 E7.02049 F4500
G0 X177.039 Y103.963 F7200
G1 X171.963 Y109.040 E7.30703 F4500
G0 X167.437 Y109.040 F7200
G1 X177.039 Y99.438 E7.84901 F4500
G0 X177.039 Y94.912 F7200
G1 X162.912 Y109.040 E8.64643 F4500
G0 X158.386 Y109.040 F7200
G1 X176.466 Y90.960 E9.66689 F4500
G0 X171.940 Y90.960 F7200
G1 X153.861 Y109.040 E10.68736 F4500
G0 X149.335 Y109.040 F7200
G1 X167.415 Y90.960 E11.70782 F4500
G0 X162.889 Y90.960 F7200
G1 X147.961 Y105.889 E12.55045 F4500
G0 X147.961 Y101.363 F7200
G1 X158.364 Y90.960 E13.13764 F4500
; ------------------------------------
; Layer #22
; ------------------------------------
G92 E0 ;reset extr
G0 F3000 E-1.00000
G0 F600 Z4.600
G0 X165.292 Y109.040 F7200
G0 F3000 E0.00000
;segType:Infill
G1 X147.961 Y91.708 E0.97826 F4500
G0 X147.600 Y90.600 F7200
G0 X147.416 Y90.780
;segType:Perimeter
G1 X147.260 Y90.200 E0.99821 F2160
G1 X177.800 Y90.200 E2.01395
G1 X177.800 Y109.800 E2.66582
G1 X147.200 Y109.800 E3.68355
G1 X147.200 Y90.260 E4.33343
G0 X147.973 Y90.467 F7200
G0 X148.300 Y90.600
;segType:Loop
G1 X177.400 Y90.600 E5.30127 F3600
G1 X177.400 Y109.400 E5.92654
G1 X147.600 Y109.400 E6.91766
G1 X147.600 Y90.600 E7.54293
G1 X148.100 Y90.600 E7.55956
G0 F3000 E6.55956
G0 X151.738 Y90.960 F7200
G0 F3000 E7.55956
;segType:Infill
G1 X169.817 Y109.040 E8.58002 F4500
G0 X174.343 Y109.040 F7200
G1 X156.264 Y90.960 E9.60048 F4500
G0 X160.789 Y90.960 F7200
G1 X177.039 Y107.211 E10.51770 F4500
G0 X177.039 Y102.685 F7200
G1 X165.315 Y90.960 E11.17949 F4500
G0 X169.840 Y90.960 F7200
G1 X177.039 Y98.160 E11.58584 F4500
G0 X174.366 Y90.960 F7200
G1 X177.039 Y93.634 E11.73675 F4500
G0 X151.715 Y109.040 F7200
G1 X147.961 Y105.285 E11.94870 F4500
G0 X147.961 Y100.759 F7200
G1 X156.241 Y109.040 E12.41608 F4500
G0 X160.766 Y109.040 F7200
G1 X147.961 Y96.234 E13.13890 F4500
; ------------------------------------
; Layer #23
; ------------------------------------
G92 E0 ;reset extr
G0 F3000 E-1.00000
G0 F600 Z4.800
G0 X149.313 Y90.960 F7200
G0 F3000 E0.00000
;segType:Infill
G1 X147.961 Y92.312 E0.07631 F4500
G0 X148.300 Y90.600 F7200
;segType:Loop
G1 X177.400 Y90.600 E1.04415 F3600
G1 X177.400 Y109.400 E1.66942
G1 X147.600 Y109.400 E2.66054
G1 X147.600 Y90.600 E3.28581
G1 X148.100 Y90.600 E3.30244
G0 X148.100 Y90.600 F7200
G0 X147.600 Y90.731
G0 X147.416 Y90.780
;segType:Perimeter
G1 X147.260 Y90.200 E3.32239 F2160
G1 X177.800 Y90.200 E4.33813
G1 X177.800 Y109.800 E4.99000
G1 X147.200 Y109.800 E6.00774
G1 X147.200 Y90.260 E6.65762
G0 X147.973 Y90.467 F7200
G0 F3000 E5.65762
G0 X147.961 Y96.838 F7200
G0 F3000 E6.65762
;segType:Infill
G1 X153.838 Y90.960 E6.98936 F4500
G0 X158.364 Y90.960 F7200
G1 X147.961 Y101.363 E7.57655 F4500
G0 X147.961 Y105.889 F7200
G1 X162.889 Y90.960 E8.41918 F4500
G0 X167.414 Y90.960 F7200
G1 X149.335 Y109.040 E9.43963 F4500
G0 X162.912 Y109.040 F7200
G1 X177.039 Y94.912 E10.23705 F4500
G0 X177.039 Y99.437 F7200
G1 X167.437 Y109.040 E10.77904 F4500
G0 X176.488 Y109.040 F7200
G1 X177.039 Y108.488 E10.81015 F4500
G0 X177.039 Y103.963 F7200
G1 X171.963 Y109.040 E11.09669 F4500
G0 X158.386 Y109.040 F7200
G1 X176.465 Y90.960 E12.11715 F4500
G0 X171.940 Y90.960 F7200
G1 X153.861 Y109.040 E13.13761 F4500
; ------------------------------------
; Layer #24
; ------------------------------------
G92 E0 ;reset extr
G0 F3000 E-1.00000
G0 F600 Z5.000
G0 X165.292 Y109.040 F7200
G0 F3000 E0.00000
;segType:Infill
G1 X147.961 Y91.708 E0.97826 F4500
G0 X147.600 Y90.600 F7200
G0 X147.416 Y90.780
;segType:Perimeter
G1 X147.260 Y90.200 E0.99822 F2160
G1 X177.800 Y90.200 E2.01395
G1 X177.800 Y109.800 E2.66583
G1 X147.200 Y109.800 E3.68356
G1 X147.200 Y90.260 E4.33344
G0 X147.973 Y90.467 F7200
G0 X148.300 Y90.600
;segType:Loop
G1 X177.400 Y90.600 E5.30129 F3600
G1 X177.400 Y109.400 E5.92655
G1 X147.600 Y109.400 E6.91768
G1 X147.600 Y90.600 E7.54295
G1 X148.100 Y90.600 E7.55958
G0 F3000 E6.55958
G0 X151.738 Y90.960 F7200
G0 F3000 E7.55958
;segType:Infill
G1 X169.817 Y109.040 E8.58004 F4500
G0 X174.343 Y109.040 F7200
G1 X156.264 Y90.960 E9.60050 F4500
G0 X160.789 Y90.960 F7200
G1 X177.039 Y107.211 E10.51773 F4500
G0 X177.039 Y102.685 F7200
G1 X165.315 Y90.960 E11.17952 F4500
G0 X169.840 Y90.960 F7200
G1 X177.039 Y98.160 E11.58587 F4500
G0 X177.039 Y93.634 F7200
G1 X174.366 Y90.960 E11.73678 F4500
G0 X151.716 Y109.040 F7200
G1 X147.961 Y105.285 E11.94873 F4500
G0 X147.961 Y100.759 F7200
G1 X156.241 Y109.040 E12.41611 F4500
G0 X160.766 Y109.040 F7200
G1 X147.961 Y96.234 E13.13893 F4500
; ------------------------------------
; Layer #25
; ------------------------------------
G92 E0 ;reset extr
G0 F3000 E-1.00000
G0 F600 Z5.200
G0 X149.313 Y90.960 F7200
G0 F3000 E0.00000
;segType:Infill
G1 X147.961 Y92.312 E0.07631 F4500
G0 X148.300 Y90.600 F7200
;segType:Loop
G1 X177.400 Y90.600 E1.04415 F3600
G1 X177.400 Y109.400 E1.66942
G1 X147.600 Y109.400 E2.66054
G1 X147.600 Y90.600 E3.28581
G1 X148.100 Y90.600 E3.30244
G0 X148.100 Y90.600 F7200
G0 X147.600 Y90.731
G0 X147.416 Y90.780
;segType:Perimeter
G1 X147.260 Y90.200 E3.32240 F2160
G1 X177.800 Y90.200 E4.33813
G1 X177.800 Y109.800 E4.99001
G1 X147.200 Y109.800 E6.00774
G1 X147.200 Y90.260 E6.65762
G0 X147.973 Y90.467 F7200
G0 F3000 E5.65762
G0 X147.961 Y96.838 F7200
G0 F3000 E6.65762
;segType:Infill
G1 X153.838 Y90.960 E6.98937 F4500
G0 X176.488 Y109.040 F7200
G1 X177.039 Y108.488 E7.02047 F4500
G0 X177.039 Y103.963 F7200
G1 X171.963 Y109.040 E7.30702 F4500
G0 X167.437 Y109.040 F7200
G1 X177.039 Y99.437 E7.84900 F4500
G0 X177.039 Y94.912 F7200
G1 X162.912 Y109.040 E8.64642 F4500
G0 X158.386 Y109.040 F7200
G1 X176.465 Y90.960 E9.66687 F4500
G0 X171.940 Y90.960 F7200
G1 X153.861 Y109.040 E10.68733 F4500
G0 X149.335 Y109.040 F7200
G1 X167.414 Y90.960 E11.70779 F4500
G0 X162.889 Y90.960 F7200
G1 X147.961 Y105.889 E12.55042 F4500
G0 X147.961 Y101.363 F7200
G1 X158.364 Y90.960 E13.13760 F4500
; ------------------------------------
; Layer #26
; ------------------------------------
G92 E0 ;reset extr
G0 F3000 E-1.00000
G0 F600 Z5.400
G0 X165.292 Y109.040 F7200
G0 F3000 E0.00000
;segType:Infill
G1 X147.961 Y91.708 E0.97826 F4500
G0 X147.600 Y90.600 F7200
G0 X147.416 Y90.780
;segType:Perimeter
G1 X147.260 Y90.200 E0.99822 F2160
G1 X177.800 Y90.200 E2.01395
G1 X177.800 Y109.800 E2.66583
G1 X147.200 Y109.800 E3.68356
G1 X147.200 Y90.260 E4.33344
G0 X147.973 Y90.467 F7200
G0 X148.300 Y90.600
;segType:Loop
G1 X177.400 Y90.600 E5.30129 F3600
G1 X177.400 Y109.400 E5.92655
G1 X147.600 Y109.400 E6.91768
G1 X147.600 Y90.600 E7.54295
G1 X148.100 Y90.600 E7.55958
G0 F3000 E6.55958
G0 X151.738 Y90.960 F7200
G0 F3000 E7.55958
;segType:Infill
G1 X169.817 Y109.040 E8.58004 F4500
G0 X174.343 Y109.040 F7200
G1 X156.264 Y90.960 E9.60050 F4500
G0 X160.789 Y90.960 F7200
G1 X177.039 Y107.211 E10.51773 F4500
G0 X177.039 Y102.685 F7200
G1 X165.315 Y90.960 E11.17952 F4500
G0 X169.840 Y90.960 F7200
G1 X177.039 Y98.160 E11.58587 F4500
G0 X174.366 Y90.960 F7200
G1 X177.039 Y93.634 E11.73678 F4500
G0 X151.715 Y109.040 F7200
G1 X147.961 Y105.285 E11.94873 F4500
G0 X147.961 Y100.759 F7200
G1 X156.241 Y109.040 E12.41611 F4500
G0 X160.766 Y109.040 F7200
G1 X147.961 Y96.234 E13.13893 F4500
; ------------------------------------
; Layer #27
; ------------------------------------
G92 E0 ;reset extr
G0 F3000 E-1.00000
G0 F600 Z5.600
G0 X149.313 Y90.960 F7200
G0 F3000 E0.00000
;segType:Infill
G1 X147.961 Y92.313 E0.07632 F4500
G0 X148.300 Y90.600 F7200
;segType:Loop
G1 X177.400 Y90.600 E1.04416 F3600
G1 X177.400 Y109.400 E1.66942
G1 X147.600 Y109.400 E2.66054
G1 X147.600 Y90.600 E3.28581
G1 X148.100 Y90.600 E3.30244
G0 X148.100 Y90.600 F7200
G0 X147.600 Y90.731
G0 X147.416 Y90.780
;segType:Perimeter
G1 X147.260 Y90.200 E3.32240 F2160
G1 X177.800 Y90.200 E4.33813
G1 X177.800 Y109.800 E4.99001
G1 X147.200 Y109.800 E6.00774
G1 X147.200 Y90.260 E6.65762
G0 X147.973 Y90.467 F7200
G0 F3000 E5.65762
G0 X147.961 Y96.838 F7200
G0 F3000 E6.65762
;segType:Infill
G1 X153.838 Y90.960 E6.98937 F4500
G0 X158.364 Y90.960 F7200
G1 X147.961 Y101.363 E7.57656 F4500
G0 X147.961 Y105.889 F7200
G1 X162.889 Y90.960 E8.41919 F4500
G0 X167.415 Y90.960 F7200
G1 X149.335 Y109.040 E9.43965 F4500
G0 X162.912 Y109.040 F7200
G1 X177.039 Y94.912 E10.23706 F4500
G0 X177.039 Y99.438 F7200
G1 X167.437 Y109.040 E10.77904 F4500
G0 X176.488 Y109.040 F7200
G1 X177.039 Y108.488 E10.81015 F4500
G0 X177.039 Y103.963 F7200
G1 X171.963 Y109.040 E11.09669 F4500
G0 X158.386 Y109.040 F7200
G1 X176.466 Y90.960 E12.11715 F4500
G0 X171.940 Y90.960 F7200
G1 X153.861 Y109.040 E13.13761 F4500
; ------------------------------------
; Layer #28
; ------------------------------------
G92 E0 ;reset extr
G0 F3000 E-1.00000
G0 F600 Z5.800
G0 X165.292 Y109.040 F7200
G0 F3000 E0.00000
;segType:Infill
G1 X147.961 Y91.708 E0.97826 F4500
G0 X147.600 Y90.600 F7200
G0 X147.416 Y90.780
;segType:Perimeter
G1 X147.260 Y90.200 E0.99821 F2160
G1 X177.800 Y90.200 E2.01395
G1 X177.800 Y109.800 E2.66582
G1 X147.200 Y109.800 E3.68355
G1 X147.200 Y90.260 E4.33343
G0 X147.973 Y90.467 F7200
G0 X148.300 Y90.600
;segType:Loop
G1 X177.400 Y90.600 E5.30127 F3600
G1 X177.400 Y109.400 E5.92654
G1 X147.600 Y109.400 E6.91766
G1 X147.600 Y90.600 E7.54293
G1 X148.100 Y90.600 E7.55956
G0 F3000 E6.55956
G0 X151.738 Y90.960 F7200
G0 F3000 E7.55956
;segType:Infill
G1 X169.817 Y109.040 E8.58002 F4500
G0 X174.343 Y109.040 F7200
G1 X156.264 Y90.960 E9.60048 F4500
G0 X160.789 Y90.960 F7200
G1 X177.039 Y107.211 E10.51770 F4500
G0 X177.039 Y102.685 F7200
G1 X165.315 Y90.960 E11.17949 F4500
G0 X169.840 Y90.960 F7200
G1 X177.039 Y98.160 E11.58584 F4500
G0 X177.039 Y93.634 F7200
G1 X174.366 Y90.960 E11.73675 F4500
G0 X151.715 Y109.040 F7200
G1 X147.961 Y105.285 E11.94870 F4500
G0 X147.961 Y100.759 F7200
G1 X156.241 Y109.040 E12.41608 F4500
G0 X160.766 Y109.040 F7200
G1 X147.961 Y96.234 E13.13890 F4500
; ------------------------------------
; Layer #29
; ------------------------------------
G92 E0 ;reset extr
G0 F3000 E-1.00000
G0 F600 Z6.000
G0 X149.313 Y90.960 F7200
G0 F3000 E0.00000
;segType:Infill
G1 X147.961 Y92.312 E0.07631 F4500
G0 X148.300 Y90.600 F7200
;segType:Loop
G1 X177.400 Y90.600 E1.04415 F3600
G1 X177.400 Y109.400 E1.66942
G1 X147.600 Y109.400 E2.66055
G1 X147.600 Y90.600 E3.28582
G1 X148.100 Y90.600 E3.30245
G0 X148.100 Y90.600 F7200
G0 X147.600 Y90.731
G0 X147.416 Y90.780
;segType:Perimeter
G1 X147.260 Y90.200 E3.32240 F2160
G1 X177.800 Y90.200 E4.33814
G1 X177.800 Y109.800 E4.99002
G1 X147.200 Y109.800 E6.00775
G1 X147.200 Y90.260 E6.65763
G0 X147.973 Y90.467 F7200
G0 F3000 E5.65763
G0 X147.961 Y96.838 F7200
G0 F3000 E6.65763
;segType:Infill
G1 X153.838 Y90.960 E6.98938 F4500
G0 X176.488 Y109.040 F7200
G1 X177.039 Y108.488 E7.02049 F4500
G0 X177.039 Y103.963 F7200
G1 X171.963 Y109.040 E7.30704 F4500
G0 X167.437 Y109.040 F7200
G1 X177.039 Y99.437 E7.84902 F4500
G0 X177.039 Y94.912 F7200
G1 X162.912 Y109.040 E8.64645 F4500
G0 X158.386 Y109.040 F7200
G1 X176.465 Y90.960 E9.66691 F4500
G0 X171.940 Y90.960 F7200
G1 X153.861 Y109.040 E10.68737 F4500
G0 X149.335 Y109.040 F7200
G1 X167.414 Y90.960 E11.70783 F4500
G0 X162.889 Y90.960 F7200
G1 X147.961 Y105.889 E12.55045 F4500
G0 X147.961 Y101.363 F7200
G1 X158.364 Y90.960 E13.13764 F4500
; ------------------------------------
; Layer #30
; ------------------------------------
G92 E0 ;reset extr
G0 F3000 E-1.00000
G0 F600 Z6.200
G0 X165.292 Y109.040 F7200
G0 F3000 E0.00000
;segType:Infill
G1 X147.961 Y91.708 E0.97826 F4500
G0 X147.600 Y90.600 F7200
G0 X147.416 Y90.780
;segType:Perimeter
G1 X147.260 Y90.200 E0.99821 F2160
G1 X177.800 Y90.200 E2.01395
G1 X177.800 Y109.800 E2.66582
G1 X147.200 Y109.800 E3.68355
G1 X147.200 Y90.260 E4.33343
G0 X147.973 Y90.467 F7200
G0 X148.300 Y90.600
;segType:Loop
G1 X177.400 Y90.600 E5.30127 F3600
G1 X177.400 Y109.400 E5.92654
G1 X147.600 Y109.400 E6.91766
G1 X147.600 Y90.600 E7.54293
G1 X148.100 Y90.600 E7.55956
G0 F3000 E6.55956
G0 X151.738 Y90.960 F7200
G0 F3000 E7.55956
;segType:Infill
G1 X169.817 Y109.040 E8.58002 F4500
G0 X174.343 Y109.040 F7200
G1 X156.264 Y90.960 E9.60048 F4500
G0 X160.789 Y90.960 F7200
G1 X177.039 Y107.211 E10.51771 F4500
G0 X177.039 Y102.685 F7200
G1 X165.315 Y90.960 E11.17949 F4500
G0 X169.840 Y90.960 F7200
G1 X177.039 Y98.160 E11.58584 F4500
G0 X174.366 Y90.960 F7200
G1 X177.039 Y93.634 E11.73676 F4500
G0 X151.716 Y109.040 F7200
G1 X147.961 Y105.285 E11.94870 F4500
G0 X147.961 Y100.759 F7200
G1 X156.241 Y109.040 E12.41608 F4500
G0 X160.766 Y109.040 F7200
G1 X147.961 Y96.234 E13.13890 F4500
; ------------------------------------
; Layer #31
; ------------------------------------
G92 E0 ;reset extr
G0 F3000 E-1.00000
G0 F600 Z6.400
G0 X149.313 Y90.960 F7200
G0 F3000 E0.00000
;segType:Infill
G1 X147.961 Y92.312 E0.07631 F4500
G0 X148.300 Y90.600 F7200
;segType:Loop
G1 X177.400 Y90.600 E1.04416 F3600
G1 X177.400 Y109.400 E1.66943
G1 X147.600 Y109.400 E2.66055
G1 X147.600 Y90.600 E3.28582
G1 X148.100 Y90.600 E3.30245
G0 X148.100 Y90.600 F7200
G0 X147.600 Y90.731
G0 X147.416 Y90.780
;segType:Perimeter
G1 X147.260 Y90.200 E3.32240 F2160
G1 X177.800 Y90.200 E4.33814
G1 X177.800 Y109.800 E4.99002
G1 X147.200 Y109.800 E6.00775
G1 X147.200 Y90.260 E6.65763
G0 X147.973 Y90.467 F7200
G0 F3000 E5.65763
G0 X147.961 Y96.838 F7200
G0 F3000 E6.65763
;segType:Infill
G1 X153.838 Y90.960 E6.98938 F4500
G0 X158.364 Y90.960 F7200
G1 X147.961 Y101.363 E7.57658 F4500
G0 X147.961 Y105.889 F7200
G1 X162.889 Y90.960 E8.41920 F4500
G0 X167.414 Y90.960 F7200
G1 X149.335 Y109.040 E9.43967 F4500
G0 X162.912 Y109.040 F7200
G1 X177.039 Y94.912 E10.23709 F4500
G0 X177.039 Y99.437 F7200
G1 X167.437 Y109.040 E10.77907 F4500
G0 X176.488 Y109.040 F7200
G1 X177.039 Y108.488 E10.81018 F4500
G0 X177.039 Y103.963 F7200
G1 X171.963 Y109.040 E11.09672 F4500
G0 X158.386 Y109.040 F7200
G1 X176.465 Y90.960 E12.11718 F4500
G0 X171.940 Y90.960 F7200
G1 X153.861 Y109.040 E13.13764 F4500
; ------------------------------------
; Layer #32
; ------------------------------------
G92 E0 ;reset extr
G0 F3000 E-1.00000
G0 F600 Z6.600
G0 X165.292 Y109.040 F7200
G0 F3000 E0.00000
;segType:Infill
G1 X147.961 Y91.708 E0.97826 F4500
G0 X147.600 Y90.600 F7200
G0 X147.416 Y90.780
;segType:Perimeter
G1 X147.260 Y90.200 E0.99821 F2160
G1 X177.800 Y90.200 E2.01395
G1 X177.800 Y109.800 E2.66582
G1 X147.200 Y109.800 E3.68355
G1 X147.200 Y90.260 E4.33343
G0 X147.973 Y90.467 F7200
G0 X148.300 Y90.600
;segType:Loop
G1 X177.400 Y90.600 E5.30127 F3600
G1 X177.400 Y109.400 E5.92654
G1 X147.600 Y109.400 E6.91766
G1 X147.600 Y90.600 E7.54293
G1 X148.100 Y90.600 E7.55956
G0 F3000 E6.55956
G0 X151.738 Y90.960 F7200
G0 F3000 E7.55956
;segType:Infill
G1 X169.817 Y109.040 E8.58002 F4500
G0 X174.343 Y109.040 F7200
G1 X156.264 Y90.960 E9.60048 F4500
G0 X160.789 Y90.960 F7200
G1 X177.039 Y107.211 E10.51770 F4500
G0 X177.039 Y102.685 F7200
G1 X165.315 Y90.960 E11.17949 F4500
G0 X169.840 Y90.960 F7200
G1 X177.039 Y98.160 E11.58584 F4500
G0 X177.039 Y93.634 F7200
G1 X174.366 Y90.960 E11.73675 F4500
G0 X151.715 Y109.040 F7200
G1 X147.961 Y105.285 E11.94870 F4500
G0 X147.961 Y100.759 F7200
G1 X156.241 Y109.040 E12.41608 F4500
G0 X160.766 Y109.040 F7200
G1 X147.961 Y96.234 E13.13890 F4500
; ------------------------------------
; Layer #33
; ------------------------------------
G92 E0 ;reset extr
G0 F3000 E-1.00000
G0 F600 Z6.800
G0 X149.313 Y90.960 F7200
G0 F3000 E0.00000
;segType:Infill
G1 X147.961 Y92.313 E0.07632 F4500
G0 X148.300 Y90.600 F7200
;segType:Loop
G1 X177.400 Y90.600 E1.04416 F3600
G1 X177.400 Y109.400 E1.66942
G1 X147.600 Y109.400 E2.66055
G1 X147.600 Y90.600 E3.28581
G1 X148.100 Y90.600 E3.30244
G0 X148.100 Y90.600 F7200
G0 X147.600 Y90.731
G0 X147.416 Y90.780
;segType:Perimeter
G1 X147.260 Y90.200 E3.32240 F2160
G1 X177.800 Y90.200 E4.33813
G1 X177.800 Y109.800 E4.99001
G1 X147.200 Y109.800 E6.00774
G1 X147.200 Y90.260 E6.65762
G0 X147.973 Y90.467 F7200
G0 F3000 E5.65762
G0 X147.961 Y96.838 F7200
G0 F3000 E6.65762
;segType:Infill
G1 X153.838 Y90.960 E6.98937 F4500
G0 X176.488 Y109.040 F7200
G1 X177.039 Y108.488 E7.02047 F4500
G0 X177.039 Y103.963 F7200
G1 X171.963 Y109.040 E7.30702 F4500
G0 X167.437 Y109.040 F7200
G1 X177.039 Y99.438 E7.84899 F4500
G0 X177.039 Y94.912 F7200
G1 X162.912 Y109.040 E8.64641 F4500
G0 X158.386 Y109.040 F7200
G1 X176.466 Y90.960 E9.66687 F4500
G0 X171.940 Y90.960 F7200
G1 X153.861 Y109.040 E10.68733 F4500
G0 X149.335 Y109.040 F7200
G1 X167.415 Y90.960 E11.70779 F4500
G0 X162.889 Y90.960 F7200
G1 X147.961 Y105.889 E12.55042 F4500
G0 X147.961 Y101.363 F7200
G1 X158.364 Y90.960 E13.13761 F4500
; ------------------------------------
; Layer #34
; ------------------------------------
G92 E0 ;reset extr
G0 F3000 E-1.00000
G0 F600 Z7.000
G0 X165.292 Y109.040 F7200
G0 F3000 E0.00000
;segType:Infill
G1 X147.961 Y91.708 E0.97826 F4500
G0 X147.600 Y90.600 F7200
G0 X147.416 Y90.780
;segType:Perimeter
G1 X147.260 Y90.200 E0.99822 F2160
G1 X177.800 Y90.200 E2.01395
G1 X177.800 Y109.800 E2.66583
G1 X147.200 Y109.800 E3.68356
G1 X147.200 Y90.260 E4.33344
G0 X147.973 Y90.467 F7200
G0 X148.300 Y90.600
;segType:Loop
G1 X177.400 Y90.600 E5.30129 F3600
G1 X177.400 Y109.400 E5.92656
G1 X147.600 Y109.400 E6.91768
G1 X147.600 Y90.600 E7.54295
G1 X148.100 Y90.600 E7.55958
G0 F3000 E6.55958
G0 X151.738 Y90.960 F7200
G0 F3000 E7.55958
;segType:Infill
G1 X169.817 Y109.040 E8.58004 F4500
G0 X174.343 Y109.040 F7200
G1 X156.264 Y90.960 E9.60050 F4500
G0 X160.789 Y90.960 F7200
G1 X177.039 Y107.211 E10.51773 F4500
G0 X177.039 Y102.685 F7200
G1 X165.315 Y90.960 E11.17952 F4500
G0 X169.840 Y90.960 F7200
G1 X177.039 Y98.160 E11.58587 F4500
G0 X174.366 Y90.960 F7200
G1 X177.039 Y93.634 E11.73678 F4500
G0 X151.715 Y109.040 F7200
G1 X147.961 Y105.285 E11.94873 F4500
G0 X147.961 Y100.759 F7200
G1 X156.241 Y109.040 E12.41611 F4500
G0 X160.766 Y109.040 F7200
G1 X147.961 Y96.234 E13.13893 F4500
; ------------------------------------
; Layer #35
; ------------------------------------
G92 E0 ;reset extr
G0 F3000 E-1.00000
G0 F600 Z7.200
G0 X149.313 Y90.960 F7200
G0 F3000 E0.00000
;segType:Infill
G1 X147.961 Y92.312 E0.07631 F4500
G0 X148.300 Y90.600 F7200
;segType:Loop
G1 X177.400 Y90.600 E1.04415 F3600
G1 X177.400 Y109.400 E1.66942
G1 X147.600 Y109.400 E2.66054
G1 X147.600 Y90.600 E3.28581
G1 X148.100 Y90.600 E3.30244
G0 X148.100 Y90.600 F7200
G0 X147.600 Y90.731
G0 X147.416 Y90.780
;segType:Perimeter
G1 X147.260 Y90.200 E3.32239 F2160
G1 X177.800 Y90.200 E4.33813
G1 X177.800 Y109.800 E4.99000
G1 X147.200 Y109.800 E6.00774
G1 X147.200 Y90.260 E6.65762
G0 X147.973 Y90.467 F7200
G0 F3000 E5.65762
G0 X147.961 Y96.838 F7200
G0 F3000 E6.65762
;segType:Infill
G1 X153.838 Y90.960 E6.98936 F4500
G0 X158.364 Y90.960 F7200
G1 X147.961 Y101.363 E7.57655 F4500
G0 X147.961 Y105.889 F7200
G1 X162.889 Y90.960 E8.41918 F4500
G0 X167.414 Y90.960 F7200
G1 X149.335 Y109.040 E9.43963 F4500
G0 X158.386 Y109.040 F7200
G1 X176.465 Y90.960 E10.46009 F4500
G0 F3000 E9.46009
G0 X177.039 Y94.912 F7200
G0 F3000 E10.46009
G1 X162.912 Y109.040 E11.25751 F4500
G0 F3000 E10.25751
G0 X177.039 Y108.488 F7200
G0 F3000 E11.25751
G1 X176.488 Y109.040 E11.28862 F4500
G0 X171.963 Y109.040 F7200
G1 X177.039 Y103.963 E11.57517 F4500
G0 X177.039 Y99.437 F7200
G1 X167.437 Y109.040 E12.11715 F4500
G0 X153.861 Y109.040 F7200
G1 X171.940 Y90.960 E13.13761 F4500
; ------------------------------------
; Layer #36
; ------------------------------------
G92 E0 ;reset extr
G0 F3000 E-1.00000
G0 F600 Z7.400
G0 X165.292 Y109.040 F7200
G0 F3000 E0.00000
;segType:Infill
G1 X147.961 Y91.708 E0.97826 F4500
G0 X147.600 Y90.600 F7200
G0 X147.416 Y90.780
;segType:Perimeter
G1 X147.260 Y90.200 E0.99822 F2160
G1 X177.800 Y90.200 E2.01395
G1 X177.800 Y109.800 E2.66583
G1 X147.200 Y109.800 E3.68356
G1 X147.200 Y90.260 E4.33344
G0 X147.973 Y90.467 F7200
G0 X148.300 Y90.600
;segType:Loop
G1 X177.400 Y90.600 E5.30129 F3600
G1 X177.400 Y109.400 E5.92655
G1 X147.600 Y109.400 E6.91768
G1 X147.600 Y90.600 E7.54295
G1 X148.100 Y90.600 E7.55958
G0 F3000 E6.55958
G0 X151.738 Y90.960 F7200
G0 F3000 E7.55958
;segType:Infill
G1 X169.817 Y109.040 E8.58004 F4500
G0 X174.343 Y109.040 F7200
G1 X156.264 Y90.960 E9.60050 F4500
G0 X160.789 Y90.960 F7200
G1 X177.039 Y107.211 E10.51773 F4500
G0 X177.039 Y102.685 F7200
G1 X165.315 Y90.960 E11.17952 F4500
G0 X169.840 Y90.960 F7200
G1 X177.039 Y98.160 E11.58587 F4500
G0 X177.039 Y93.634 F7200
G1 X174.366 Y90.960 E11.73678 F4500
G0 X151.716 Y109.040 F7200
G1 X147.961 Y105.285 E11.94873 F4500
G0 X147.961 Y100.759 F7200
G1 X156.241 Y109.040 E12.41611 F4500
G0 X160.766 Y109.040 F7200
G1 X147.961 Y96.234 E13.13893 F4500
; ------------------------------------
; Layer #37
; ------------------------------------
G92 E0 ;reset extr
G0 F3000 E-1.00000
G0 F600 Z7.600
G0 X149.313 Y90.960 F7200
G0 F3000 E0.00000
;segType:Infill
G1 X147.961 Y92.312 E0.07631 F4500
G0 X148.300 Y90.600 F7200
;segType:Loop
G1 X177.400 Y90.600 E1.04415 F3600
G1 X177.400 Y109.400 E1.66942
G1 X147.600 Y109.400 E2.66054
G1 X147.600 Y90.600 E3.28581
G1 X148.100 Y90.600 E3.30244
G0 X148.100 Y90.600 F7200
G0 X147.600 Y90.731
G0 X147.416 Y90.780
;segType:Perimeter
G1 X147.260 Y90.200 E3.32240 F2160
G1 X177.800 Y90.200 E4.33813
G1 X177.800 Y109.800 E4.99001
G1 X147.200 Y109.800 E6.00774
G1 X147.200 Y90.260 E6.65762
G0 X147.973 Y90.467 F7200
G0 F3000 E5.65762
G0 X147.961 Y96.838 F7200
G0 F3000 E6.65762
;segType:Infill
G1 X153.838 Y90.960 E6.98937 F4500
G0 X176.488 Y109.040 F7200
G1 X177.039 Y108.488 E7.02047 F4500
G0 X177.039 Y103.963 F7200
G1 X171.963 Y109.040 E7.30702 F4500
G0 X167.437 Y109.040 F7200
G1 X177.039 Y99.437 E7.84900 F4500
G0 X177.039 Y94.912 F7200
G1 X162.912 Y109.040 E8.64642 F4500
G0 X158.386 Y109.040 F7200
G1 X176.465 Y90.960 E9.66688 F4500
G0 X171.940 Y90.960 F7200
G1 X153.861 Y109.040 E10.68733 F4500
G0 X149.335 Y109.040 F7200
G1 X167.414 Y90.960 E11.70779 F4500
G0 X162.889 Y90.960 F7200
G1 X147.961 Y105.889 E12.55042 F4500
G0 X147.961 Y101.363 F7200
G1 X158.364 Y90.960 E13.13761 F4500
; ------------------------------------
; Layer #38
; ------------------------------------
G92 E0 ;reset extr
G0 F3000 E-1.00000
G0 F600 Z7.800
G0 X165.292 Y109.040 F7200
G0 F3000 E0.00000
;segType:Infill
G1 X147.961 Y91.708 E0.97826 F4500
G0 X147.600 Y90.600 F7200
G0 X147.416 Y90.780
;segType:Perimeter
G1 X147.260 Y90.200 E0.99821 F2160
G1 X177.800 Y90.200 E2.01395
G1 X177.800 Y109.800 E2.66582
G1 X147.200 Y109.800 E3.68355
G1 X147.200 Y90.260 E4.33343
G0 X147.973 Y90.467 F7200
G0 X148.300 Y90.600
;segType:Loop
G1 X177.400 Y90.600 E5.30127 F3600
G1 X177.400 Y109.400 E5.92654
G1 X147.600 Y109.400 E6.91766
G1 X147.600 Y90.600 E7.54293
G1 X148.100 Y90.600 E7.55956
G0 F3000 E6.55956
G0 X151.738 Y90.960 F7200
G0 F3000 E7.55956
;segType:Infill
G1 X169.817 Y109.040 E8.58002 F4500
G0 X174.343 Y109.040 F7200
G1 X156.264 Y90.960 E9.60048 F4500
G0 X160.789 Y90.960 F7200
G1 X177.039 Y107.211 E10.51770 F4500
G0 X177.039 Y93.634 F7200
G1 X174.366 Y90.960 E10.66862 F4500
G0 X177.039 Y98.160 F7200
G1 X169.840 Y90.960 E11.07497 F4500
G0 X165.315 Y90.960 F7200
G1 X177.039 Y102.685 E11.73675 F4500
G0 X160.766 Y109.040 F7200
G1 X147.961 Y96.234 E12.45957 F4500
G0 X147.961 Y100.759 F7200
G1 X156.241 Y109.040 E12.92695 F4500
G0 X151.715 Y109.040 F7200
G1 X147.961 Y105.285 E13.13890 F4500
; ------------------------------------
; Layer #39
; ------------------------------------
G92 E0 ;reset extr
G0 F3000 E-1.00000
G0 F600 Z8.000
G0 X147.961 Y96.838 F7200
G0 F3000 E0.00000
;segType:Infill
G1 X152.092 Y92.707 E0.23319 F4500
G0 X149.313 Y90.960 F7200
G1 X147.961 Y92.313 E0.30950 F4500
G0 X148.300 Y90.600 F7200
;segType:Loop
G1 X177.400 Y90.600 E1.27734 F3600
G1 X177.400 Y109.400 E1.90261
G1 X147.600 Y109.400 E2.89374
G1 X147.600 Y90.600 E3.51901
G1 X148.100 Y90.600 E3.53564
G0 X148.100 Y90.600 F7200
G0 X147.600 Y90.731
G0 X147.416 Y90.780
;segType:Perimeter
G1 X147.260 Y90.200 E3.55559 F2160
G1 X177.800 Y90.200 E4.57133
G1 X177.800 Y109.800 E5.22321
G1 X147.200 Y109.800 E6.24094
G1 X147.200 Y90.260 E6.89082
G0 X147.973 Y90.467 F7200
G0 F3000 E5.89082
G0 X152.092 Y97.232 F7200
G0 F3000 E6.89082
;segType:Infill
G1 X147.961 Y101.363 E7.12401 F4500
G0 F3000 E6.12401
G0 X152.092 Y101.758 F7200
G0 F3000 E7.12401
G1 X147.961 Y105.889 E7.35719 F4500
G0 X149.335 Y109.040 F7200
G1 X152.092 Y106.283 E7.51277 F4500
G0 X155.508 Y107.392 F7200
G1 X169.492 Y93.409 E8.30207 F4500
G0 X172.908 Y94.518 F7200
G1 X176.466 Y90.960 E8.50287 F4500
G0 F3000 E7.50287
G0 X177.039 Y94.912 F7200
G0 F3000 E8.50287
G1 X172.908 Y99.043 E8.73605 F4500
G0 F3000 E7.73605
G0 X177.039 Y99.438 F7200
G0 F3000 E8.73605
G1 X172.908 Y103.569 E8.96924 F4500
G0 X176.488 Y109.040 F7200
G1 X177.039 Y108.488 E9.00034 F4500
G0 X177.039 Y103.963 F7200
G1 X172.908 Y108.094 E9.23353 F4500
G0 X169.492 Y106.985 F7200
G1 X167.437 Y109.040 E9.34949 F4500
G0 X162.912 Y109.040 F7200
G1 X169.492 Y102.460 E9.72089 F4500
G0 X169.492 Y97.934 F7200
G1 X158.386 Y109.040 E10.34773 F4500
G0 X155.508 Y102.867 F7200
G1 X167.415 Y90.960 E11.01978 F4500
G0 X162.889 Y90.960 F7200
G1 X155.508 Y98.341 E11.43639 F4500
G0 X155.508 Y93.816 F7200
G1 X158.364 Y90.960 E11.59757 F4500
G0 F3000 E10.59757
G0 X148.181 Y90.960 F7200
G0 F3000 E11.59757
;segType:HShell
G0 X147.898 Y90.960 F7200
G1 X148.747 Y90.960 E11.59757 F3600
G1 X149.313 Y90.960 E11.59757
G1 X149.878 Y90.960 E11.59758
G1 X150.444 Y90.960 E11.59758
G1 X151.010 Y90.960 E11.59758
G1 X151.575 Y90.960 E11.59758
G1 X152.116 Y90.985 E11.59758
G0 X152.092 Y91.575 F7200
G1 X152.707 Y90.960 E11.62651 F3600
G0 X153.272 Y90.960 F7200
G1 X152.092 Y92.141 E11.68204 F3600
G0 X152.092 Y92.707 F7200
G1 X153.838 Y90.960 E11.76418 F3600
G0 X154.404 Y90.960 F7200
G1 X152.092 Y93.272 E11.87293 F3600
G0 X152.092 Y93.838 F7200
G1 X154.969 Y90.960 E12.00829 F3600
G0 X155.252 Y90.960 F7200
G1 X156.101 Y90.960 E12.00829 F3600
G1 X156.667 Y90.960 E12.00829
G1 X157.232 Y90.960 E12.00829
G1 X157.798 Y90.960 E12.00829
G1 X158.364 Y90.960 E12.00829
G1 X158.929 Y90.960 E12.00829
G1 X159.495 Y90.960 E12.00830
G1 X160.061 Y90.960 E12.00830
G1 X160.626 Y90.960 E12.00830
G1 X161.192 Y90.960 E12.00830
G1 X161.758 Y90.960 E12.00830
G1 X162.323 Y90.960 E12.00830
G1 X162.889 Y90.960 E12.00830
G1 X163.455 Y90.960 E12.00830
G1 X164.020 Y90.960 E12.00830
G1 X164.586 Y90.960 E12.00830
G1 X165.152 Y90.960 E12.00831
G1 X165.718 Y90.960 E12.00831
G1 X166.283 Y90.960 E12.00831
G1 X166.849 Y90.960 E12.00831
G1 X167.415 Y90.960 E12.00831
G1 X167.980 Y90.960 E12.00831
G1 X168.546 Y90.960 E12.00831
G1 X169.112 Y90.960 E12.00831
G1 X169.585 Y91.053 E12.00831
G0 X170.243 Y90.960 F7200
G1 X169.492 Y91.712 E12.04364 F3600
G0 X169.492 Y92.277 F7200
G1 X170.809 Y90.960 E12.10558 F3600
G0 X171.374 Y90.960 F7200
G1 X169.492 Y92.843 E12.19413 F3600
G0 X169.492 Y93.409 F7200
G1 X171.940 Y90.960 E12.30928 F3600
G0 X172.506 Y90.960 F7200
G1 X169.492 Y93.974 E12.45104 F3600
G0 X169.492 Y94.540 F7200
G1 X172.908 Y91.124 E12.61173 F3600
G0 X172.908 Y91.689 F7200
G1 X169.492 Y95.106 E12.77243 F3600
G0 X169.492 Y95.671 F7200
G1 X172.908 Y92.255 E12.93312 F3600
G0 X172.908 Y92.821 F7200
G1 X169.492 Y96.237 E13.09381 F3600
G0 X169.492 Y96.803 F7200
G1 X172.908 Y93.386 E13.25451 F3600
G0 X172.908 Y93.952 F7200
G1 X169.492 Y97.368 E13.41520 F3600
G0 X169.492 Y97.934 F7200
G1 X172.908 Y94.518 E13.57589 F3600
G0 X172.908 Y95.083 F7200
G1 X169.492 Y98.500 E13.73659 F3600
G0 X169.492 Y99.065 F7200
G1 X172.908 Y95.649 E13.89728 F3600
G0 X172.908 Y96.215 F7200
G1 X169.492 Y99.631 E14.05797 F3600
G0 X169.492 Y100.197 F7200
G1 X172.908 Y96.781 E14.21867 F3600
G0 X172.908 Y97.346 F7200
G1 X169.492 Y100.763 E14.37936 F3600
G0 X169.492 Y101.328 F7200
G1 X172.908 Y97.912 E14.54005 F3600
G0 X172.908 Y98.478 F7200
G1 X169.492 Y101.894 E14.70075 F3600
G0 X169.492 Y102.460 F7200
G1 X172.908 Y99.043 E14.86144 F3600
G0 X172.908 Y99.609 F7200
G1 X169.492 Y103.025 E15.02213 F3600
G0 X169.492 Y103.591 F7200
G1 X172.908 Y100.175 E15.18282 F3600
G0 X172.908 Y100.740 F7200
G1 X169.492 Y104.157 E15.34352 F3600
G0 X169.492 Y104.722 F7200
G1 X172.908 Y101.306 E15.50421 F3600
G0 X172.908 Y101.872 F7200
G1 X169.492 Y105.288 E15.66490 F3600
G0 X169.492 Y105.854 F7200
G1 X172.908 Y102.437 E15.82560 F3600
G0 X172.908 Y103.003 F7200
G1 X169.492 Y106.419 E15.98629 F3600
G0 X169.492 Y106.985 F7200
G1 X172.908 Y103.569 E16.14698 F3600
G0 X172.908 Y104.134 F7200
G1 X169.492 Y107.551 E16.30768 F3600
G0 X169.492 Y108.116 F7200
G1 X172.908 Y104.700 E16.46837 F3600
G0 X172.908 Y105.266 F7200
G1 X169.492 Y108.682 E16.62907 F3600
G0 X169.700 Y109.040 F7200
G1 X172.908 Y105.831 E16.77996 F3600
G0 X172.908 Y106.397 F7200
G1 X170.266 Y109.040 E16.90425 F3600
G0 X170.832 Y109.040 F7200
G1 X172.908 Y106.963 E17.00193 F3600
G0 X172.908 Y107.529 F7200
G1 X171.397 Y109.040 E17.07300 F3600
G0 X171.963 Y109.040 F7200
G1 X172.908 Y108.094 E17.11747 F3600
G0 X172.908 Y108.660 F7200
G1 X172.529 Y109.040 E17.13532 F3600
G0 X154.992 Y109.040 F7200
G1 X155.508 Y108.524 E17.15958 F3600
G0 X155.508 Y107.958 F7200
G1 X154.427 Y109.040 E17.21045 F3600
G0 X153.861 Y109.040 F7200
G1 X155.508 Y107.392 E17.28793 F3600
G0 X155.508 Y106.827 F7200
G1 X153.295 Y109.040 E17.39201 F3600
G0 X152.730 Y109.040 F7200
G1 X155.508 Y106.261 E17.52271 F3600
G0 X155.508 Y105.695 F7200
G1 X152.164 Y109.040 E17.68001 F3600
G0 X152.092 Y108.546 F7200
G1 X155.508 Y105.130 E17.84070 F3600
G0 X155.508 Y104.564 F7200
G1 X152.092 Y107.980 E18.00140 F3600
G0 X152.092 Y107.415 F7200
G1 X155.508 Y103.998 E18.16209 F3600
G0 X155.508 Y103.433 F7200
G1 X152.092 Y106.849 E18.32279 F3600
G0 X152.092 Y106.283 F7200
G1 X155.508 Y102.867 E18.48348 F3600
G0 X155.508 Y102.301 F7200
G1 X152.092 Y105.718 E18.64417 F3600
G0 X152.092 Y105.152 F7200
G1 X155.508 Y101.736 E18.80487 F3600
G0 X155.508 Y101.170 F7200
G1 X152.092 Y104.586 E18.96556 F3600
G0 X152.092 Y104.020 F7200
G1 X155.508 Y100.604 E19.12626 F3600
G0 X155.508 Y100.038 F7200
G1 X152.092 Y103.455 E19.28695 F3600
G0 X152.092 Y102.889 F7200
G1 X155.508 Y99.473 E19.44764 F3600
G0 X155.508 Y98.907 F7200
G1 X152.092 Y102.323 E19.60834 F3600
G0 X152.092 Y101.758 F7200
G1 X155.508 Y98.341 E19.76903 F3600
G0 X155.508 Y97.776 F7200
G1 X152.092 Y101.192 E19.92973 F3600
G0 X152.092 Y100.626 F7200
G1 X155.508 Y97.210 E20.09042 F3600
G0 X155.508 Y96.644 F7200
G1 X152.092 Y100.061 E20.25111 F3600
G0 X152.092 Y99.495 F7200
G1 X155.508 Y96.079 E20.41181 F3600
G0 X155.508 Y95.513 F7200
G1 X152.092 Y98.929 E20.57250 F3600
G0 X152.092 Y98.364 F7200
G1 X155.508 Y94.947 E20.73320 F3600
G0 X155.508 Y94.382 F7200
G1 X152.092 Y97.798 E20.89389 F3600
G0 X152.092 Y97.232 F7200
G1 X155.508 Y93.816 E21.05459 F3600
G0 X155.508 Y93.250 F7200
G1 X152.092 Y96.667 E21.21528 F3600
G0 X152.092 Y96.101 F7200
G1 X155.508 Y92.685 E21.37597 F3600
G0 X155.508 Y92.119 F7200
G1 X152.092 Y95.535 E21.53667 F3600
G0 X152.092 Y94.970 F7200
G1 X155.508 Y91.553 E21.69736 F3600
G0 X155.508 Y90.987 F7200
G1 X152.092 Y94.404 E21.85806 F3600
; ------------------------------------
; Layer #40
; ------------------------------------
G92 E0 ;reset extr
G0 F3000 E-1.00000
G0 F600 Z8.200
G0 X151.830 Y100.103 F7200
G0 F3000 E0.00000
;segType:Infill
G1 X147.961 Y96.234 E0.21841 F4500
G0 F3000 E-0.78159
G0 X151.830 Y95.578 F7200
G0 F3000 E0.21841
G1 X147.961 Y91.708 E0.43681 F4500
G0 X147.600 Y90.600 F7200
G0 X147.416 Y90.780
;segType:Perimeter
G1 X147.260 Y90.200 E0.45677 F2160
G1 X177.800 Y90.200 E1.47250
G1 X177.800 Y109.800 E2.12438
G1 X147.200 Y109.800 E3.14211
G1 X147.200 Y90.260 E3.79199
G0 X147.973 Y90.467 F7200
G0 X148.300 Y90.600
;segType:Loop
G1 X177.400 Y90.600 E4.75983 F3600
G1 X177.400 Y109.400 E5.38509
G1 X147.600 Y109.400 E6.37622
G1 X147.600 Y90.600 E7.00148
G1 X148.100 Y90.600 E7.01811
G0 F3000 E6.01811
G0 X151.738 Y90.960 F7200
G0 F3000 E7.01811
;segType:Infill
G1 X151.830 Y91.052 E7.02328 F4500
G0 X156.264 Y90.960 F7200
G1 X169.230 Y103.927 E7.75515 F4500
G0 X173.170 Y107.867 F7200
G1 X174.343 Y109.040 E7.82135 F4500
G0 X177.039 Y107.211 F7200
G1 X173.170 Y103.341 E8.03976 F4500
G0 F3000 E7.03976
G0 X177.039 Y102.685 F7200
G0 F3000 E8.03976
G1 X173.170 Y98.816 E8.25816 F4500
G0 F3000 E7.25816
G0 X177.039 Y98.160 F7200
G0 F3000 E8.25816
G1 X173.170 Y94.290 E8.47657 F4500
G0 F3000 E7.47657
G0 X177.039 Y93.634 F7200
G0 F3000 E8.47657
G1 X174.366 Y90.960 E8.62748 F4500
G0 X165.315 Y90.960 F7200
G1 X169.230 Y94.876 E8.84847 F4500
G0 X169.230 Y99.401 F7200
G1 X160.789 Y90.960 E9.32490 F4500
G0 X155.770 Y94.992 F7200
G1 X169.230 Y108.452 E10.08465 F4500
G0 X165.292 Y109.040 F7200
G1 X155.770 Y99.518 E10.62211 F4500
G0 X155.770 Y104.043 F7200
G1 X160.766 Y109.040 E10.90413 F4500
G0 X156.241 Y109.040 F7200
G1 X155.770 Y108.569 E10.93072 F4500
G0 X151.715 Y109.040 F7200
G1 X147.961 Y105.285 E11.14266 F4500
G0 F3000 E10.14266
G0 X151.830 Y104.629 F7200
G0 F3000 E11.14266
G1 X147.961 Y100.759 E11.36107 F4500
G0 F3000 E10.36107
G0 X148.887 Y109.040 F7200
G0 F3000 E11.36107
;segType:HShell
G0 X148.604 Y109.040 F7200
G0 X149.453 Y109.040 F7200
G0 X150.018 Y109.040
G0 X150.584 Y109.040
G0 X151.150 Y109.040
G0 X151.715 Y109.040
G0 X152.056 Y108.814
G0 X152.847 Y109.040
G1 X151.830 Y108.023 E11.40890 F3600
G0 X151.830 Y107.457 F7200
G1 X153.413 Y109.040 E11.48334 F3600
G0 X153.978 Y109.040 F7200
G1 X151.830 Y106.891 E11.58439 F3600
G0 X151.830 Y106.326 F7200
G1 X154.544 Y109.040 E11.71204 F3600
G0 X155.110 Y109.040 F7200
G1 X151.830 Y105.760 E11.86631 F3600
G0 X151.830 Y105.194 F7200
G1 X155.675 Y109.040 E12.04718 F3600
G0 X155.770 Y108.569 F7200
G1 X151.830 Y104.629 E12.23250 F3600
G0 X151.830 Y104.063 F7200
G1 X155.770 Y108.003 E12.41783 F3600
G0 X155.770 Y107.437 F7200
G1 X151.830 Y103.497 E12.60316 F3600
G0 X151.830 Y102.931 F7200
G1 X155.770 Y106.871 E12.78848 F3600
G0 X155.770 Y106.306 F7200
G1 X151.830 Y102.366 E12.97381 F3600
G0 X151.830 Y101.800 F7200
G1 X155.770 Y105.740 E13.15913 F3600
G0 X155.770 Y105.174 F7200
G1 X151.830 Y101.234 E13.34446 F3600
G0 X151.830 Y100.669 F7200
G1 X155.770 Y104.609 E13.52978 F3600
G0 X155.770 Y104.043 F7200
G1 X151.830 Y100.103 E13.71511 F3600
G0 X151.830 Y99.537 F7200
G1 X155.770 Y103.477 E13.90044 F3600
G0 X155.770 Y102.912 F7200
G1 X151.830 Y98.972 E14.08576 F3600
G0 X151.830 Y98.406 F7200
G1 X155.770 Y102.346 E14.27109 F3600
G0 X155.770 Y101.780 F7200
G1 X151.830 Y97.840 E14.45641 F3600
G0 X151.830 Y97.275 F7200
G1 X155.770 Y101.215 E14.64174 F3600
G0 X155.770 Y100.649 F7200
G1 X151.830 Y96.709 E14.82706 F3600
G0 X151.830 Y96.143 F7200
G1 X155.770 Y100.083 E15.01239 F3600
G0 X155.770 Y99.518 F7200
G1 X151.830 Y95.578 E15.19771 F3600
G0 X151.830 Y95.012 F7200
G1 X155.770 Y98.952 E15.38304 F3600
G0 X155.770 Y98.386 F7200
G1 X151.830 Y94.446 E15.56837 F3600
G0 X151.830 Y93.880 F7200
G1 X155.770 Y97.820 E15.75369 F3600
G0 X155.770 Y97.255 F7200
G1 X151.830 Y93.315 E15.93902 F3600
G0 X151.830 Y92.749 F7200
G1 X155.770 Y96.689 E16.12434 F3600
G0 X155.770 Y96.123 F7200
G1 X151.830 Y92.183 E16.30967 F3600
G0 X151.830 Y91.618 F7200
G1 X155.770 Y95.558 E16.49499 F3600
G0 X155.770 Y94.992 F7200
G1 X151.830 Y91.052 E16.68032 F3600
G0 X152.304 Y90.960 F7200
G1 X155.770 Y94.426 E16.84334 F3600
G0 X155.770 Y93.861 F7200
G1 X152.870 Y90.960 E16.97976 F3600
G0 X153.435 Y90.960 F7200
G1 X155.770 Y93.295 E17.08957 F3600
G0 X155.770 Y92.729 F7200
G1 X154.001 Y90.960 E17.17277 F3600
G0 X154.567 Y90.960 F7200
G1 X155.770 Y92.164 E17.22936 F3600
G0 X155.770 Y91.598 F7200
G1 X155.132 Y90.960 E17.25935 F3600
G0 X155.469 Y91.014 F7200
G1 X156.264 Y90.960 E17.27201 F3600
G0 X156.830 Y90.960 F7200
G0 X157.395 Y90.960
G0 X157.961 Y90.960
G0 X158.527 Y90.960
G0 X159.092 Y90.960
G0 X159.658 Y90.960
G0 X160.224 Y90.960
G0 X160.789 Y90.960
G0 X161.355 Y90.960
G0 X161.921 Y90.960
G0 X162.486 Y90.960
G0 X163.052 Y90.960
G0 X163.618 Y90.960
G0 X164.183 Y90.960
G0 X164.749 Y90.960
G0 X165.315 Y90.960
G0 X165.881 Y90.960
G0 X166.446 Y90.960
G0 X167.012 Y90.960
G0 X167.578 Y90.960
G0 X168.143 Y90.960
G0 X168.709 Y90.960
G0 X169.275 Y90.960
G1 X173.170 Y94.856 E17.45524 F3600
G0 X173.170 Y94.290 F7200
G1 X169.840 Y90.960 E17.61186 F3600
G0 X170.406 Y90.960 F7200
G1 X173.170 Y93.725 E17.74187 F3600
G0 X173.170 Y93.159 F7200
G1 X170.972 Y90.960 E17.84528 F3600
G0 X171.537 Y90.960 F7200
G1 X173.170 Y92.593 E17.92207 F3600
G0 X173.170 Y92.027 F7200
G1 X172.103 Y90.960 E17.97226 F3600
G0 X172.762 Y91.336 F7200
G1 X173.234 Y90.960 E18.06069 F3600
G0 X173.800 Y90.960 F7200
G0 X174.366 Y90.960
G0 X174.931 Y90.960
G0 X175.497 Y90.960
G0 X176.063 Y90.960
G0 X176.629 Y90.960
G0 X177.039 Y91.371
G0 X177.039 Y91.089
G0 X177.039 Y91.937 F7200
G0 X177.039 Y92.503
G0 X177.039 Y93.068
G0 X177.039 Y93.634
G0 X177.039 Y94.200
G0 X177.039 Y94.766
G0 X177.039 Y95.331
G0 X177.039 Y95.897
G0 X177.039 Y96.463
G0 X177.039 Y97.028
G0 X177.039 Y97.594
G0 X177.039 Y98.160
G0 X177.039 Y98.725
G0 X177.039 Y99.291
G0 X177.039 Y99.857
G0 X177.039 Y100.422
G0 X177.039 Y100.988
G0 X177.039 Y101.554
G0 X177.039 Y102.119
G0 X177.039 Y102.685
G0 X177.039 Y103.251
G0 X177.039 Y103.816
G0 X177.039 Y104.382
G0 X177.039 Y104.948
G0 X177.039 Y105.514
G0 X177.039 Y106.079
G0 X177.039 Y106.645
G0 X177.039 Y107.211
G0 X177.039 Y107.776
G0 X177.039 Y108.342
G0 X177.039 Y108.908
G0 X173.170 Y95.422
G1 X169.230 Y91.482 E18.24601 F3600
G0 X169.230 Y92.047 F7200
G1 X173.170 Y95.987 E18.43134 F3600
G0 X173.170 Y96.553 F7200
G1 X169.230 Y92.613 E18.61667 F3600
G0 X169.230 Y93.179 F7200
G1 X173.170 Y97.119 E18.80199 F3600
G0 X173.170 Y97.684 F7200
G1 X169.230 Y93.744 E18.98732 F3600
G0 X169.230 Y94.310 F7200
G1 X173.170 Y98.250 E19.17264 F3600
G0 X173.170 Y98.816 F7200
G1 X169.230 Y94.876 E19.35797 F3600
G0 X169.230 Y95.441 F7200
G1 X173.170 Y99.381 E19.54329 F3600
G0 X173.170 Y99.947 F7200
G1 X169.230 Y96.007 E19.72862 F3600
G0 X169.230 Y96.573 F7200
G1 X173.170 Y100.513 E19.91394 F3600
G0 X173.170 Y101.078 F7200
G1 X169.230 Y97.138 E20.09927 F3600
G0 X169.230 Y97.704 F7200
G1 X173.170 Y101.644 E20.28460 F3600
G0 X173.170 Y102.210 F7200
G1 X169.230 Y98.270 E20.46992 F3600
G0 X169.230 Y98.836 F7200
G1 X173.170 Y102.776 E20.65525 F3600
G0 X173.170 Y103.341 F7200
G1 X169.230 Y99.401 E20.84057 F3600
G0 X169.230 Y99.967 F7200
G1 X173.170 Y103.907 E21.02590 F3600
G0 X173.170 Y104.473 F7200
G1 X169.230 Y100.533 E21.21122 F3600
G0 X169.230 Y101.098 F7200
G1 X173.170 Y105.038 E21.39655 F3600
G0 X173.170 Y105.604 F7200
G1 X169.230 Y101.664 E21.58188 F3600
G0 X169.230 Y102.230 F7200
G1 X173.170 Y106.170 E21.76720 F3600
G0 X173.170 Y106.735 F7200
G1 X169.230 Y102.795 E21.95253 F3600
G0 X169.230 Y103.361 F7200
G1 X173.170 Y107.301 E22.13785 F3600
G0 X173.170 Y107.867 F7200
G1 X169.230 Y103.927 E22.32318 F3600
G0 X169.230 Y104.492 F7200
G1 X173.170 Y108.432 E22.50850 F3600
G0 X173.170 Y108.998 F7200
G1 X169.230 Y105.058 E22.69383 F3600
G0 X169.230 Y105.624 F7200
G1 X172.646 Y109.040 E22.85450 F3600
G0 X172.080 Y109.040 F7200
G1 X169.230 Y106.189 E22.98856 F3600
G0 X169.230 Y106.755 F7200
G1 X171.514 Y109.040 E23.09601 F3600
G0 X170.949 Y109.040 F7200
G1 X169.230 Y107.321 E23.17685 F3600
G0 X169.230 Y107.886 F7200
G1 X170.383 Y109.040 E23.23109 F3600
G0 X169.817 Y109.040 F7200
G1 X169.230 Y108.452 E23.25872 F3600
G0 X169.518 Y109.023 F7200
G1 X168.686 Y109.040 E23.26254 F3600
G0 X168.120 Y109.040 F7200
G0 X167.555 Y109.040
G0 X166.989 Y109.040
G0 X166.423 Y109.040
G0 X165.858 Y109.040
G0 X165.292 Y109.040
G0 X164.726 Y109.040
G0 X164.161 Y109.040
G0 X163.595 Y109.040
G0 X163.029 Y109.040
G0 X162.464 Y109.040
G0 X161.898 Y109.040
G0 X161.332 Y109.040
G0 X160.766 Y109.040
G0 X160.201 Y109.040
G0 X159.635 Y109.040
G0 X159.069 Y109.040
G0 X158.504 Y109.040
G0 X157.938 Y109.040
G0 X157.372 Y109.040
G0 X156.807 Y109.040
G0 X156.241 Y109.040
; ------------------------------------
; Layer #41
; ------------------------------------
G92 E0 ;reset extr
G0 F3000 E-1.00000
G0 F600 Z8.400
G0 X147.961 Y101.363 F7200
G0 F3000 E0.00000
;segType:Infill
G1 X151.655 Y97.669 E0.20856 F4500
G0 F3000 E-0.79144
G0 X147.961 Y96.838 F7200
G0 F3000 E0.20856
G1 X151.655 Y93.143 E0.41711 F4500
G0 X149.313 Y90.960 F7200
G1 X147.961 Y92.313 E0.49343 F4500
G0 X147.600 Y90.600 F7200
G0 X147.416 Y90.780
;segType:Perimeter
G1 X147.260 Y90.200 E0.51339 F2160
G1 X177.800 Y90.200 E1.52912
G1 X177.800 Y109.800 E2.18100
G1 X147.200 Y109.800 E3.19873
G1 X147.200 Y90.260 E3.84861
G0 X147.973 Y90.467 F7200
G0 X148.300 Y90.600
;segType:Loop
G1 X177.400 Y90.600 E4.81645 F3600
G1 X177.400 Y109.400 E5.44171
G1 X147.600 Y109.400 E6.43284
G1 X147.600 Y90.600 E7.05810
G1 X148.100 Y90.600 E7.07473
G0 F3000 E6.07473
G0 X155.944 Y93.380 F7200
G0 F3000 E7.07473
;segType:Infill
G1 X158.364 Y90.960 E7.21128 F4500
G0 X169.056 Y93.845 F7200
G1 X155.944 Y106.956 E7.95133 F4500
G0 X158.386 Y109.040 F7200
G1 X169.056 Y98.370 E8.55354 F4500
G0 X173.345 Y94.082 F7200
G1 X176.466 Y90.960 E8.72970 F4500
G0 F3000 E7.72970
G0 X177.039 Y94.912 F7200
G0 F3000 E8.72970
G1 X173.345 Y98.607 E8.93826 F4500
G0 F3000 E7.93826
G0 X177.039 Y99.438 F7200
G0 F3000 E8.93826
G1 X173.345 Y103.132 E9.14682 F4500
G0 X176.488 Y109.040 F7200
G1 X177.039 Y108.489 E9.17792 F4500
G0 X177.039 Y103.963 F7200
G1 X173.345 Y107.658 E9.38647 F4500
G0 X167.437 Y109.040 F7200
G1 X169.056 Y107.421 E9.47781 F4500
G0 X169.056 Y102.896 F7200
G1 X162.912 Y109.040 E9.82458 F4500
G0 X151.655 Y102.194 F7200
G1 X147.961 Y105.889 E10.03314 F4500
G0 X149.336 Y109.040 F7200
G1 X151.655 Y106.720 E10.16409 F4500
G0 X155.944 Y102.431 F7200
G1 X167.415 Y90.960 E10.81151 F4500
G0 X162.889 Y90.960 F7200
G1 X155.944 Y97.905 E11.20350 F4500
G0 F3000 E10.20350
G0 X152.141 Y90.960 F7200
G0 F3000 E11.20350
;segType:HShell
G1 X151.655 Y91.446 E11.22634 F3600
G0 X151.655 Y92.012 F7200
G1 X152.707 Y90.960 E11.27578 F3600
G0 X153.272 Y90.960 F7200
G1 X151.655 Y92.577 E11.35184 F3600
G0 X151.655 Y93.143 F7200
G1 X153.838 Y90.960 E11.45451 F3600
G0 X154.404 Y90.960 F7200
G1 X151.655 Y93.709 E11.58378 F3600
G0 X151.655 Y94.274 F7200
G1 X154.970 Y90.960 E11.73966 F3600
G0 X155.535 Y90.960 F7200
G1 X151.655 Y94.840 E11.92215 F3600
G0 X151.655 Y95.406 F7200
G1 X155.944 Y91.117 E12.12389 F3600
G0 X155.944 Y91.683 F7200
G1 X151.655 Y95.972 E12.32562 F3600
G0 X151.655 Y96.537 F7200
G1 X155.944 Y92.248 E12.52736 F3600
G0 X155.944 Y92.814 F7200
G1 X151.655 Y97.103 E12.72910 F3600
G0 X151.655 Y97.669 F7200
G1 X155.944 Y93.380 E12.93084 F3600
G0 X155.944 Y93.945 F7200
G1 X151.655 Y98.234 E13.13258 F3600
G0 X151.655 Y98.800 F7200
G1 X155.944 Y94.511 E13.33432 F3600
G0 X155.944 Y95.077 F7200
G1 X151.655 Y99.366 E13.53605 F3600
G0 X151.655 Y99.931 F7200
G1 X155.944 Y95.642 E13.73779 F3600
G0 X155.944 Y96.208 F7200
G1 X151.655 Y100.497 E13.93953 F3600
G0 X151.655 Y101.063 F7200
G1 X155.944 Y96.774 E14.14127 F3600
G0 X155.944 Y97.339 F7200
G1 X151.655 Y101.628 E14.34301 F3600
G0 X151.655 Y102.194 F7200
G1 X155.944 Y97.905 E14.54475 F3600
G0 X155.944 Y98.471 F7200
G1 X151.655 Y102.760 E14.74649 F3600
G0 X151.655 Y103.325 F7200
G1 X155.944 Y99.036 E14.94822 F3600
G0 X155.944 Y99.602 F7200
G1 X151.655 Y103.891 E15.14996 F3600
G0 X151.655 Y104.457 F7200
G1 X155.944 Y100.168 E15.35170 F3600
G0 X155.944 Y100.734 F7200
G1 X151.655 Y105.022 E15.55344 F3600
G0 X151.655 Y105.588 F7200
G1 X155.944 Y101.299 E15.75518 F3600
G0 X155.944 Y101.865 F7200
G1 X151.655 Y106.154 E15.95692 F3600
G0 X151.655 Y106.720 F7200
G1 X155.944 Y102.431 E16.15866 F3600
G0 X155.944 Y102.996 F7200
G1 X151.655 Y107.285 E16.36040 F3600
G0 X151.655 Y107.851 F7200
G1 X155.944 Y103.562 E16.56213 F3600
G0 X155.944 Y104.128 F7200
G1 X151.655 Y108.417 E16.76387 F3600
G0 X151.655 Y108.982 F7200
G1 X155.944 Y104.693 E16.96561 F3600
G0 X155.944 Y105.259 F7200
G1 X152.164 Y109.040 E17.14344 F3600
G0 X152.730 Y109.040 F7200
G1 X155.944 Y105.825 E17.29465 F3600
G0 X155.944 Y106.390 F7200
G1 X153.295 Y109.040 E17.41926 F3600
G0 X153.861 Y109.040 F7200
G1 X155.944 Y106.956 E17.51726 F3600
G0 X155.944 Y107.522 F7200
G1 X154.427 Y109.040 E17.58865 F3600
G0 X154.992 Y109.040 F7200
G1 X155.944 Y108.087 E17.63343 F3600
G0 X155.944 Y108.653 F7200
G1 X155.558 Y109.040 E17.65161 F3600
G0 F3000 E16.65161
G0 X155.547 Y109.400 F7200
G0 X156.112 Y90.600
G0 X156.101 Y90.960
G0 F3000 E17.65161
G0 X155.818 Y90.960 F7200
G0 X156.667 Y90.960 F7200
G0 X157.232 Y90.960
G0 X157.798 Y90.960
G0 X158.364 Y90.960
G0 X158.929 Y90.960
G0 X159.495 Y90.960
G0 X160.061 Y90.960
G0 X160.626 Y90.960
G0 X161.192 Y90.960
G0 X161.758 Y90.960
G0 X162.323 Y90.960
G0 X162.889 Y90.960
G0 X163.455 Y90.960
G0 X164.021 Y90.960
G0 X164.586 Y90.960
G0 X165.152 Y90.960
G0 X165.718 Y90.960
G0 X166.283 Y90.960
G0 X166.849 Y90.960
G0 X167.415 Y90.960
G0 X167.980 Y90.960
G0 X168.546 Y90.960
G0 X169.084 Y90.989
G0 X169.677 Y90.960
G1 X169.056 Y91.582 E17.68085 F3600
G0 X169.056 Y92.148 F7200
G1 X170.243 Y90.960 E17.73671 F3600
G0 X170.809 Y90.960 F7200
G1 X169.056 Y92.714 E17.81917 F3600
G0 X169.056 Y93.279 F7200
G1 X171.374 Y90.960 E17.92824 F3600
G0 X171.940 Y90.960 F7200
G1 X169.056 Y93.845 E18.06392 F3600
G0 X169.056 Y94.411 F7200
G1 X172.506 Y90.960 E18.22621 F3600
G0 X173.071 Y90.960 F7200
G1 X169.056 Y94.976 E18.41510 F3600
G0 X169.056 Y95.542 F7200
G1 X173.345 Y91.253 E18.61684 F3600
G0 X173.345 Y91.819 F7200
G1 X169.056 Y96.108 E18.81858 F3600
G0 X169.056 Y96.673 F7200
G1 X173.345 Y92.384 E19.02032 F3600
G0 X173.345 Y92.950 F7200
G1 X169.056 Y97.239 E19.22206 F3600
G0 X169.056 Y97.805 F7200
G1 X173.345 Y93.516 E19.42379 F3600
G0 X173.345 Y94.082 F7200
G1 X169.056 Y98.370 E19.62553 F3600
G0 X169.056 Y98.936 F7200
G1 X173.345 Y94.647 E19.82727 F3600
G0 X173.345 Y95.213 F7200
G1 X169.056 Y99.502 E20.02901 F3600
G0 X169.056 Y100.068 F7200
G1 X173.345 Y95.779 E20.23075 F3600
G0 X173.345 Y96.344 F7200
G1 X169.056 Y100.633 E20.43249 F3600
G0 X169.056 Y101.199 F7200
G1 X173.345 Y96.910 E20.63422 F3600
G0 X173.345 Y97.476 F7200
G1 X169.056 Y101.765 E20.83596 F3600
G0 X169.056 Y102.330 F7200
G1 X173.345 Y98.041 E21.03770 F3600
G0 X173.345 Y98.607 F7200
G1 X169.056 Y102.896 E21.23944 F3600
G0 X169.056 Y103.462 F7200
G1 X173.345 Y99.173 E21.44118 F3600
G0 X173.345 Y99.738 F7200
G1 X169.056 Y104.027 E21.64292 F3600
G0 X169.056 Y104.593 F7200
G1 X173.345 Y100.304 E21.84466 F3600
G0 X173.345 Y100.870 F7200
G1 X169.056 Y105.159 E22.04639 F3600
G0 X169.056 Y105.724 F7200
G1 X173.345 Y101.435 E22.24813 F3600
G0 X173.345 Y102.001 F7200
G1 X169.056 Y106.290 E22.44987 F3600
G0 X169.056 Y106.856 F7200
G1 X173.345 Y102.567 E22.65161 F3600
G0 X173.345 Y103.132 F7200
G1 X169.056 Y107.421 E22.85335 F3600
G0 X169.056 Y107.987 F7200
G1 X173.345 Y103.698 E23.05509 F3600
G0 X173.345 Y104.264 F7200
G1 X169.056 Y108.553 E23.25682 F3600
G0 X169.135 Y109.040 F7200
G1 X173.345 Y104.830 E23.45485 F3600
G0 X173.345 Y105.395 F7200
G1 X169.700 Y109.040 E23.62627 F3600
G0 X170.266 Y109.040 F7200
G1 X173.345 Y105.961 E23.77108 F3600
G0 X173.345 Y106.527 F7200
G1 X170.832 Y109.040 E23.88928 F3600
G0 X171.397 Y109.040 F7200
G1 X173.345 Y107.092 E23.98087 F3600
G0 X173.345 Y107.658 F7200
G1 X171.963 Y109.040 E24.04586 F3600
G0 X172.529 Y109.040 F7200
G1 X173.345 Y108.224 E24.08423 F3600
G0 X173.345 Y108.789 F7200
G1 X173.094 Y109.040 E24.09600 F3600
G0 F3000 E23.09600
G0 X173.016 Y109.400 F7200
G0 X177.110 Y90.600
G0 X177.031 Y90.960
G0 F3000 E24.09600
G0 X177.314 Y90.960 F7200
G0 X176.466 Y90.960 F7200
G0 X175.900 Y90.960
G0 X175.334 Y90.960
G0 X174.769 Y90.960
G0 X174.203 Y90.960
G0 X173.637 Y90.960
; ------------------------------------
; Layer #42
; ------------------------------------
G92 E0 ;reset extr
G0 F3000 E-1.00000
G0 F600 Z8.600
G0 X151.520 Y99.793 F7200
G0 F3000 E0.00000
;segType:Infill
G1 X147.961 Y96.234 E0.20090 F4500
G0 F3000 E-0.79910
G0 X151.520 Y95.267 F7200
G0 F3000 E0.20090
G1 X147.961 Y91.708 E0.40180 F4500
G0 X147.600 Y90.600 F7200
G0 X147.416 Y90.780
;segType:Perimeter
G1 X147.260 Y90.200 E0.42175 F2160
G1 X177.800 Y90.200 E1.43749
G1 X177.800 Y109.800 E2.08937
G1 X147.200 Y109.800 E3.10711
G1 X147.200 Y90.260 E3.75699
G0 X147.973 Y90.467 F7200
G0 X148.300 Y90.600
;segType:Loop
G1 X177.400 Y90.600 E4.72483 F3600
G1 X177.400 Y109.400 E5.35010
G1 X147.600 Y109.400 E6.34123
G1 X147.600 Y90.600 E6.96650
G1 X148.100 Y90.600 E6.98313
G0 F3000 E5.98313
G0 X156.264 Y90.960 F7200
G0 F3000 E6.98313
;segType:Infill
G1 X168.920 Y103.616 E7.69748 F4500
G0 X165.292 Y109.040 F7200
G1 X156.080 Y99.828 E8.21742 F4500
G0 X156.080 Y95.303 F7200
G1 X168.920 Y108.142 E8.94212 F4500
G0 X173.480 Y108.177 F7200
G1 X174.343 Y109.040 E8.99082 F4500
G0 X177.039 Y107.211 F7200
G1 X173.480 Y103.651 E9.19172 F4500
G0 F3000 E8.19172
G0 X177.039 Y102.685 F7200
G0 F3000 E9.19172
G1 X173.480 Y99.126 E9.39261 F4500
G0 F3000 E8.39261
G0 X177.039 Y98.160 F7200
G0 F3000 E9.39261
G1 X173.480 Y94.600 E9.59351 F4500
G0 F3000 E8.59351
G0 X174.366 Y90.960 F7200
G0 F3000 E9.59351
G1 X177.039 Y93.634 E9.74443 F4500
G0 F3000 E8.74443
G0 X168.920 Y94.565 F7200
G0 F3000 E9.74443
G1 X165.315 Y90.960 E9.94790 F4500
G0 X160.789 Y90.960 F7200
G1 X168.920 Y99.091 E10.40680 F4500
G0 X156.080 Y104.353 F7200
G1 X160.766 Y109.040 E10.67131 F4500
G0 X156.241 Y109.040 F7200
G1 X156.080 Y108.879 E10.68037 F4500
G0 X151.520 Y108.844 F7200
G1 X147.961 Y105.285 E10.88127 F4500
G0 F3000 E9.88127
G0 X151.520 Y104.318 F7200
G0 F3000 E10.88127
G1 X147.961 Y100.759 E11.08217 F4500
G0 F3000 E10.08217
G0 X148.344 Y90.960 F7200
G0 F3000 E11.08217
;segType:HShell
G0 X148.061 Y90.960 F7200
G1 X148.910 Y90.960 E11.08217 F3600
G0 X149.476 Y90.960 F7200
G0 X150.041 Y90.960
G0 X150.607 Y90.960
G0 X151.173 Y90.960
G0 X156.080 Y91.343
G1 X155.698 Y90.960 E11.10015 F3600
G0 X155.132 Y90.960 F7200
G1 X156.080 Y91.908 E11.14474 F3600
G0 X156.080 Y92.474 F7200
G1 X154.567 Y90.960 E11.21593 F3600
G0 X154.001 Y90.960 F7200
G1 X156.080 Y93.040 E11.31374 F3600
G0 X156.080 Y93.605 F7200
G1 X153.435 Y90.960 E11.43815 F3600
G0 X152.870 Y90.960 F7200
G1 X156.080 Y94.171 E11.58917 F3600
G0 X156.080 Y94.737 F7200
G1 X152.304 Y90.960 E11.76680 F3600
G0 X151.738 Y90.960 F7200
G1 X156.080 Y95.303 E11.97103 F3600
G0 X156.080 Y95.868 F7200
G1 X151.520 Y91.308 E12.18555 F3600
G0 X151.520 Y91.873 F7200
G1 X156.080 Y96.434 E12.40007 F3600
G0 X156.080 Y97.000 F7200
G1 X151.520 Y92.439 E12.61459 F3600
G0 X151.520 Y93.005 F7200
G1 X156.080 Y97.565 E12.82911 F3600
G0 X156.080 Y98.131 F7200
G1 X151.520 Y93.570 E13.04362 F3600
G0 X151.520 Y94.136 F7200
G1 X156.080 Y98.697 E13.25814 F3600
G0 X156.080 Y99.262 F7200
G1 X151.520 Y94.702 E13.47266 F3600
G0 X151.520 Y95.267 F7200
G1 X156.080 Y99.828 E13.68718 F3600
G0 X156.080 Y100.394 F7200
G1 X151.520 Y95.833 E13.90169 F3600
G0 X151.520 Y96.399 F7200
G1 X156.080 Y100.959 E14.11621 F3600
G0 X156.080 Y101.525 F7200
G1 X151.520 Y96.964 E14.33073 F3600
G0 X151.520 Y97.530 F7200
G1 X156.080 Y102.091 E14.54525 F3600
G0 X156.080 Y102.656 F7200
G1 X151.520 Y98.096 E14.75976 F3600
G0 X151.520 Y98.661 F7200
G1 X156.080 Y103.222 E14.97428 F3600
G0 X156.080 Y103.788 F7200
G1 X151.520 Y99.227 E15.18880 F3600
G0 X151.520 Y99.793 F7200
G1 X156.080 Y104.353 E15.40332 F3600
G0 X156.080 Y104.919 F7200
G1 X151.520 Y100.359 E15.61784 F3600
G0 X151.520 Y100.924 F7200
G1 X156.080 Y105.485 E15.83235 F3600
G0 X156.080 Y106.051 F7200
G1 X151.520 Y101.490 E16.04687 F3600
G0 X151.520 Y102.056 F7200
G1 X156.080 Y106.616 E16.26139 F3600
G0 X156.080 Y107.182 F7200
G1 X151.520 Y102.621 E16.47591 F3600
G0 X151.520 Y103.187 F7200
G1 X156.080 Y107.748 E16.69042 F3600
G0 X156.080 Y108.313 F7200
G1 X151.520 Y103.753 E16.90494 F3600
G0 X151.520 Y104.318 F7200
G1 X156.080 Y108.879 E17.11946 F3600
G0 X155.675 Y109.040 F7200
G1 X151.520 Y104.884 E17.31492 F3600
G0 X151.520 Y105.450 F7200
G1 X155.110 Y109.040 E17.48378 F3600
G0 X154.544 Y109.040 F7200
G1 X151.520 Y106.015 E17.62602 F3600
G0 X151.520 Y106.581 F7200
G1 X153.978 Y109.040 E17.74166 F3600
G0 X153.413 Y109.040 F7200
G1 X151.520 Y107.147 E17.83069 F3600
G0 X151.520 Y107.712 F7200
G1 X152.847 Y109.040 E17.89312 F3600
G0 X152.281 Y109.040 F7200
G1 X151.520 Y108.278 E17.92893 F3600
G0 X151.520 Y108.844 F7200
G1 X151.715 Y109.040 E17.93814 F3600
G0 X173.480 Y91.206 F7200
G1 X173.234 Y90.960 E17.94970 F3600
G0 X172.669 Y90.960 F7200
G1 X173.480 Y91.772 E17.98787 F3600
G0 X173.480 Y92.338 F7200
G1 X172.103 Y90.960 E18.05264 F3600
G0 X171.537 Y90.960 F7200
G1 X173.480 Y92.903 E18.14403 F3600
G0 X173.480 Y93.469 F7200
G1 X170.972 Y90.960 E18.26202 F3600
G0 X170.406 Y90.960 F7200
